!!!COM: Mozart
!!!OTL: Zehn Variationen in G, uber die Ariette 'Unser dummer Pobel meint' aus dem Singspiel 'Die Pilgrime von Mekka'
!!!Variation: Theme a
**function	**harm	**kern	**kern
*	*	*clefF4	*clefG2
*	*	*k[f#]	*k[f#]
*M2/2	*M2/2	*M2/2	*M2/2
*G:	*G:	*G:	*G:
=1	=1	=1	=1
2T	2I	4GG 4G	4g
.	.	4GG 4G	4g
2T	2Vb	4FF# 4F#	4f#
.	.	8FF#L 8F#	8f#L
.	.	8GGJ 8G	8gJ
=2	=2	=2	=2
2T	2vi	4EE 4E	4e
.	.	8EEL 8E	8eL
.	.	8GGJ 8G	8gJ
2T	2V	2DD 2D	2d
=3	=3	=3	=3
*	*	*	*^
4P	4IVb	4E	4cc	4g
4P	4viio	4F#	4cc	4a
2P	2I	4G	(8ccL	4d
.	.	.	8b)	.
.	.	4r	8a'	4r
.	.	.	8g'J	.
=4	=4	=4	=4	=4
*	*	*^	*	*
4D	4Cc	(4B	2D	4g	4d
4D	4V7	4c)	.	4a)	4f#
2T	2I	4B	4G	4g	2r
*	*	*v	*v	*	*
*	*	*	*v	*v
.	.	4GG	4r
*-	*-	*-	*-
!!!COM: Mozart
!!!OTL: Zehn Variationen in G, uber die Ariette 'Unser dummer Pobel meint' aus dem Singspiel 'Die Pilgrime von Mekka'
!!!Variation: Theme b
**function	**harm	**kern	**kern
*	*	*clefF4	*clefG2
*	*	*k[f#]	*k[f#]
*M2/2	*M2/2	*M2/2	*M2/2
*G:	*G:	*G:	*G:
=5	=5	=5	=5
2P	2V7/ii	4GG# 4G#	4B 4d [4e
.	.	4EE 4E	8.eL]
.	.	.	16eJk
2P	2ic/ii	4AA 4A	[4e 4c
.	.	4EE 4E	(8.eL]
.	.	.	32aLL
.	.	.	32ccJJJ)
=6	=6	=6	=6
*	*	*	*^
2P	2V/ii	4G#	4ee	4b
.	.	4E	4ee	4g#
2P	2ii	4A	4cc	4a
.	.	4AA	4r	4r
*	*	*	*v	*v
=7	=7	=7	=7
2D	2V7	4FF# 4F#	4A 4c [4d
.	.	4DD 4D	8.dL]
.	.	.	16dJk
2D	2Cc	4GG 4G	[4d 4B
.	.	4DD 4D	(8.dL]
.	.	.	32gLL
.	.	.	32bJJJ)
=8	=8	=8	=8
*	*	*	*^
2D	2V	4F#	4dd	4a
.	.	4D	4dd	4f#
2T	2I	4G	4b	4g
*	*	*	*v	*v
.	.	4GG	4r
*-	*-	*-	*-
!!!COM: Mozart
!!!OTL: Zehn Variationen in G, uber die Ariette 'Unser dummer Pobel meint' aus dem Singspiel 'Die Pilgrime von Mekka'
!!!Variation: Theme c
**function	**harm	**kern	**kern
*	*	*clefF4	*clefG2
*	*	*k[f#]	*k[f#]
*M2/2	*M2/2	*M2/2	*M2/2
*G:	*G:	*G:	*G:
=9	=9	=9	=9
2T	2I	4GG 4G	4g 4gg
.	.	4GG 4G	4g 4gg
2T	2Vb	4FF# 4F#	4f# 4ff#
.	.	8FF#L 8F#	8f#L 8ff#
.	.	8GGJ 8G	8gJ 8gg
=10	=10	=10	=10
2T	2vi	4EE 4E	4e 4ee
.	.	8EEL 8E	8eL 8ee
.	.	8GGJ 8G	8gJ 8gg
2T	2V	2DD 2D	2d 2dd
=11	=11	=11	=11
*	*	*	*^
4D	4viiob	4A	4ccc	4gg
4D	4viio	4F#	4ccc	4aa
2D	2I	4G	(8cccL	4dd
.	.	.	8bb)	.
.	.	4r	8aa'	4r
.	.	.	8gg'J	.
=12	=12	=12	=12	=12
*	*	*^	*	*
4D	4Cc	(4B	2D	4gg	4dd
4D	4V7	4c)	.	4aa)	4ff#
2T	2I	4B;	4G;	4gg	2r
*	*	*	*	*v	*v
*	*	*v	*v	*
.	.	4r	4r
*-	*-	*-	*-
!!!COM: Mozart
!!!OTL: Zehn Variationen in G, uber die Ariette 'Unser dummer Pobel meint' aus dem Singspiel 'Die Pilgrime von Mekka'
!!!Variation: Variation 1 a
**function	**harm	**kern	**kern
*	*	*clefF4	*clefG2
*	*	*k[f#]	*k[f#]
*M2/2	*M2/2	*M2/2	*M2/2
*G:	*G:	*G:	*G:
=13	=13	=13	=13
*	*	*^	*
2T	2I	4r	2G	16gLL
.	.	.	.	16a
.	.	.	.	16g
.	.	.	.	16f#JJ
.	.	4B [4d	.	16gLL
.	.	.	.	16a
.	.	.	.	16b
.	.	.	.	16gJJ
2T	2Vb	4d]	2F#	16f#LL
.	.	.	.	16g
.	.	.	.	16f#
.	.	.	.	16eJJ
.	.	4A [4d	.	16f#LL
.	.	.	.	16g
.	.	.	.	16a
.	.	.	.	16f#JJ
=14	=14	=14	=14	=14
2T	2viiob/V	4d]	2E	16eLL
.	.	.	.	16f#
.	.	.	.	16e
.	.	.	.	16dJJ
.	.	4G 4c#	.	16eLL
.	.	.	.	16f#
.	.	.	.	16g
.	.	.	.	16eJJ
2T	2V	4r	2D	16dLL
.	.	.	.	16e
.	.	.	.	16d
.	.	.	.	16c#JJ
.	.	4F# 4A	.	16dLL
.	.	.	.	16e
.	.	.	.	16f#
.	.	.	.	16dJJ
=15	=15	=15	=15	=15
4P	4IVb	1G	4E	16cnLL
.	.	.	.	16cc
.	.	.	.	16d
.	.	.	.	16ddJJ
4P	4IV	.	4C	16eLL
.	.	.	.	16ee
.	.	.	.	16f#
.	.	.	.	16ff#JJ
4P	4Ib	.	4BB	16gLL
.	.	.	.	16gg
.	.	.	.	16a
.	.	.	.	16aaJJ
4P	4I	.	4GG	16bLL
.	.	.	.	16bb
.	.	.	.	16cc
.	.	.	.	16cccJJ
*	*	*v	*v	*
=16	=16	=16	=16
4D	4Cc	4D 4G 4B	4dd 4ddd
4D	4V	4D 4F# 4A	4dd 4ddd
2T	2I	4G	4g 4gg
.	.	4GG	4r
*-	*-	*-	*-
!!!COM: Mozart
!!!OTL: Zehn Variationen in G, uber die Ariette 'Unser dummer Pobel meint' aus dem Singspiel 'Die Pilgrime von Mekka'
!!!Variation: Variation 1 b
**function	**harm	**kern	**kern
*	*	*clefF4	*clefG2
*	*	*k[f#]	*k[f#]
*M2/2	*M2/2	*M2/2	*M2/2
*G:	*G:	*G:	*G:
=17	=17	=17	=17
2P	2V7d/ii	4r	(16fLL
.	.	.	16e
.	.	.	16d#
.	.	.	16eJJ
*	*	*^	*
.	.	2E	4D	16aLL
.	.	.	.	16g#
.	.	.	.	16f#
.	.	.	.	16g#JJ
4P	4ib/ii	.	4C	16bLL
.	.	.	.	16a
.	.	.	.	16g#
.	.	.	.	16aJJ)
4P	4i/ii	[4E	4AA	(16ddLL
.	.	.	.	16cc
.	.	.	.	16b
.	.	.	.	16ccJJ
=18	=18	=18	=18	=18
4P	4Vb/ii	4E]	4GG#	16ffLL
.	.	.	.	16ee
.	.	.	.	16dd#
.	.	.	.	16eeJJ
4P	4V7d/ii	2E	4D	16aaLL
.	.	.	.	16gg#
.	.	.	.	16ff#
.	.	.	.	16gg#JJ)
4P	4iib	.	(4C	(16bbLL
.	.	.	.	16aa
.	.	.	.	16gg#
.	.	.	.	16aaJJ
4P	4ii	4r	8AA)	8eee)
.	.	.	8r	8r
=19	=19	=19	=19	=19
2D	2V7d	4r	4r	(16eLL
.	.	.	.	16d
.	.	.	.	16c#
.	.	.	.	16dJJ
.	.	2D	4C	16gLL
.	.	.	.	16f#
.	.	.	.	16e
.	.	.	.	16f#JJ
4D	4Ib	.	4BB	16aLL
.	.	.	.	16g
.	.	.	.	16f#
.	.	.	.	16gJJ)
4D	4I	[4D	4GG	(16ccLL
.	.	.	.	16b
.	.	.	.	16a#
.	.	.	.	16bJJ
=20	=20	=20	=20	=20
4D	4Vb	4D]	4FF#	16eeLL
.	.	.	.	16dd
.	.	.	.	16cc#
.	.	.	.	16ddJJ
4D	4V7d	2D	4C	16ggLL
.	.	.	.	16ff#
.	.	.	.	16ee
.	.	.	.	16ff#JJ)
4T	4Ib	.	(4BB	(16aaLL
.	.	.	.	16gg
.	.	.	.	16ff#
.	.	.	.	16ggJJ
4T	4I	4r	8GG)	8ddd)
.	.	.	8r	8r
*	*	*v	*v	*
*-	*-	*-	*-
!!!COM: Mozart
!!!OTL: Zehn Variationen in G, uber die Ariette 'Unser dummer Pobel meint' aus dem Singspiel 'Die Pilgrime von Mekka'
!!!Variation: Variation 1 c
**function	**harm	**kern	**kern
*	*	*clefF4	*clefG2
*	*	*k[f#]	*k[f#]
*M2/2	*M2/2	*M2/2	*M2/2
*G:	*G:	*G:	*G:
=21	=21	=21	=21
*	*	*^	*
2T	2I	4r	2G	16aLL
.	.	.	.	16g
.	.	.	.	16f#
.	.	.	.	16gJJ
.	.	4B [4d	.	16bLL
.	.	.	.	16g
.	.	.	.	16gg
.	.	.	.	16gJJ
2T	2Vb	4d]	2F#	16gLL
.	.	.	.	16f#
.	.	.	.	16e
.	.	.	.	16f#JJ
.	.	4A [4d	.	16aLL
.	.	.	.	16f#
.	.	.	.	16ff#
.	.	.	.	16f#JJ
=22	=22	=22	=22	=22
2T	2viiob/V	4d]	2E	16f#LL
.	.	.	.	16e
.	.	.	.	16d#
.	.	.	.	16eJJ
.	.	4G 4c#	.	16gLL
.	.	.	.	16e
.	.	.	.	16ee
.	.	.	.	16eJJ
2T	2V	4r	2D	16eLL
.	.	.	.	16d
.	.	.	.	16c#
.	.	.	.	16dJJ
.	.	4F# 4A	.	16f#LL
.	.	.	.	16d
.	.	.	.	16dd
.	.	.	.	16dJJ
=23	=23	=23	=23	=23
4P	4IVb	1G	4E	16cnLL
.	.	.	.	16cc
.	.	.	.	16d
.	.	.	.	16ddJJ
4P	4IV	.	4C	16eLL
.	.	.	.	16ee
.	.	.	.	16f#
.	.	.	.	16ff#JJ
4P	4Ib	.	4BB	16gLL
.	.	.	.	16gg
.	.	.	.	16a
.	.	.	.	16aaJJ
4P	4I	.	4GG	16bLL
.	.	.	.	16bb
.	.	.	.	16cc
.	.	.	.	16cccJJ
*	*	*v	*v	*
=24	=24	=24	=24
4D	4Cc	4D 4G 4B	8ddL 8ddd
.	.	.	8dd 8ddd
4D	4V7	4D 4F# 4A	8dd 8ddd
.	.	.	8ddJ 8ddd
2T	2I	4G	4g 4gg
.	.	4GG	4r
*-	*-	*-	*-
!!!COM: Mozart
!!!OTL: Zehn Variationen in G, uber die Ariette 'Unser dummer Pobel meint' aus dem Singspiel 'Die Pilgrime von Mekka'
!!!Variation: Variation 2 a
**function	**harm	**kern	**kern
*	*	*clefF4	*clefG2
*	*	*k[f#]	*k[f#]
*M2/2	*M2/2	*M2/2	*M2/2
*G:	*G:	*G:	*G:
=25	=25	=25	=25
2T	2I	16GGLL	4g
.	.	16G	.
.	.	16F#	.
.	.	16GJJ	.
.	.	16ALL	4g
.	.	16G	.
.	.	16F#	.
.	.	16GJJ	.
.	.	.	(q32g
.	.	.	q32f#
.	.	.	q32e
2T	2Vb	16FF#LL	4f#)
.	.	16F#	.
.	.	16E	.
.	.	16F#JJ	.
.	.	16GLL	4f#
.	.	16F#	.
.	.	16E	.
.	.	16F#JJ	.
=26	=26	=26	=26
.	.	.	(q32f#
.	.	.	q32e
.	.	.	q32d#
2T	2vi	16EELL	4e)
.	.	16E	.
.	.	16D#	.
.	.	16EJJ	.
.	.	16F#LL	4e
.	.	16E	.
.	.	16D#	.
.	.	16EJJ	.
.	.	.	(q32e
.	.	.	q32d
.	.	.	q32c#
2T	2V	16DDLL	2d)
.	.	16D	.
.	.	16C#	.
.	.	16DJJ	.
.	.	16ELL	.
.	.	16D	.
.	.	16C#	.
.	.	16DJJ	.
=27	=27	=27	=27
1P	1IV	16CCnLL	4cn
.	.	16C	.
.	.	16DD	.
.	.	16DJJ	.
.	.	16EELL	(4.ee 4.ccc
.	.	16E	.
.	.	16FF#	.
.	.	16F#JJ	.
.	.	16GGLL	.
.	.	16G	.
.	.	16AA	8ddL 8bb
.	.	16AJJ	.
.	.	16BBLL	8cc 8aa
.	.	16B	.
.	.	16C	8bJ) 8gg
.	.	16cJJ	.
=28	=28	=28	=28
4D	4Cc	4D 4d	(4b 4gg
4D	4V7	4D 4d	8ddL 8bb
.	.	.	8ccJ) 8aa
2T	2I	4GG 4G	4b 4gg
.	.	4r	4r
*-	*-	*-	*-
!!!COM: Mozart
!!!OTL: Zehn Variationen in G, uber die Ariette 'Unser dummer Pobel meint' aus dem Singspiel 'Die Pilgrime von Mekka'
!!!Variation: Variation 2 b
**function	**harm	**kern	**kern
*	*	*clefF4	*clefG2
*	*	*k[f#]	*k[f#]
*M2/2	*M2/2	*M2/2	*M2/2
*G:	*G:	*G:	*G:
=29	=29	=29	=29
2P	2V7/ii	16EELL	4e
.	.	16E	.
.	.	16D#	.
.	.	16EJJ	.
.	.	16FF#LL	4d 4e
.	.	16E	.
.	.	16GG#	.
.	.	16EJJ	.
2P	2i/ii	16AALL	4c 4e
.	.	16E	.
.	.	16BB	.
.	.	16EJJ	.
.	.	16CLL	4r
.	.	16E	.
.	.	16AA	.
.	.	16EJJ	.
=30	=30	=30	=30
2P	2V7/ii	16EELL	8r
.	.	16E	.
.	.	16D#	(8ee
.	.	16EJJ	.
.	.	16F#LL	8dd#L
.	.	16E	.
.	.	16G#	8ddJ
.	.	16EJJ	.
2P	2ic/ii	16ALL	8ccL
.	.	16E	.
.	.	16B	8g#J
.	.	16EJJ	.
.	.	16cLL	4a)
.	.	16E	.
.	.	16A	.
.	.	16EJJ	.
=31	=31	=31	=31
2D	2V7	16DDLL	4d
.	.	16D	.
.	.	16C#	.
.	.	16DJJ	.
.	.	16EELL	4c 4d
.	.	16D	.
.	.	16FF#	.
.	.	16DJJ	.
2D	2I	16GGLL	4B 4d
.	.	16D	.
.	.	16AA	.
.	.	16DJJ	.
.	.	16BBLL	4r
.	.	16D	.
.	.	16GG	.
.	.	16DJJ	.
=32	=32	=32	=32
2D	2V7	16DDLL	8r
.	.	16D	.
.	.	16C#	(8dd
.	.	16DJJ	.
.	.	16ELL	8cc#L
.	.	16D	.
.	.	16F#	8ccJ
.	.	16DJJ	.
2D	2Ic	16GLL	8bL
.	.	16D	.
.	.	16A	8f#J
.	.	16DJJ	.
.	.	16BLL	4g)
.	.	16D	.
.	.	16G	.
.	.	16DJJ	.
*-	*-	*-	*-
!!!COM: Mozart
!!!OTL: Zehn Variationen in G, uber die Ariette 'Unser dummer Pobel meint' aus dem Singspiel 'Die Pilgrime von Mekka'
!!!Variation: Variation 2 c
**function	**harm	**kern	**kern
*	*	*clefF4	*clefG2
*	*	*k[f#]	*k[f#]
*M2/2	*M2/2	*M2/2	*M2/2
*G:	*G:	*G:	*G:
=33	=33	=33	=33
2T	2I	16GGLL	4g 4b 4dd 4gg
.	.	16G	.
.	.	16F#	.
.	.	16GJJ	.
.	.	16ALL	4g 4gg
.	.	16G	.
.	.	16F#	.
.	.	16GJJ	.
.	.	.	(q32gg
.	.	.	q32ff#
.	.	.	q32ee
2T	2Vb	16FF#LL	4ff#)
.	.	16F#	.
.	.	16E	.
.	.	16F#JJ	.
.	.	16GLL	4f# 4ff#
.	.	16F#	.
.	.	16E	.
.	.	16F#JJ	.
=34	=34	=34	=34
.	.	.	(q32ff#
.	.	.	q32ee
.	.	.	q32dd#
2T	2vi	16EELL	4ee)
.	.	16E	.
.	.	16D#	.
.	.	16EJJ	.
.	.	16F#LL	4e 4ee
.	.	16E	.
.	.	16D#	.
.	.	16EJJ	.
2T	2V	16DDLL	2d 2dd
.	.	16D	.
.	.	16C#	.
.	.	16DJJ	.
.	.	16ELL	.
.	.	16D	.
.	.	16C#	.
.	.	16DJJ	.
=35	=35	=35	=35
1P	1IV	16CCnLL	4c 4cc
.	.	16C	.
.	.	16DD	.
.	.	16DJJ	.
.	.	16EELL	(4.ee 4.ccc
.	.	16E	.
.	.	16FF#	.
.	.	16F#JJ	.
.	.	16GGLL	.
.	.	16G	.
.	.	16AA	8ddL 8bb
.	.	16AJJ	.
.	.	16BBLL	8cc 8aa
.	.	16B	.
.	.	16C	8bJ) 8gg
.	.	16cJJ	.
=36	=36	=36	=36
4D	4Cc	8DL 8d	(4b 4gg
.	.	8D 8d	.
4D	4V7	8D 8d	8ddL 8bb
.	.	8DJ 8d	8ccJ) 8aa
2T	2I	4GG 4G	4b 4gg
.	.	4r	4r
*-	*-	*-	*-
!!!COM: Mozart
!!!OTL: Zehn Variationen in G, uber die Ariette 'Unser dummer Pobel meint' aus dem Singspiel 'Die Pilgrime von Mekka'
!!!Variation: Variation 3 a
**function	**harm	**kern	**kern
*	*	*clefG2	*clefG2
*	*	*k[f#]	*k[f#]
*M2/2	*M2/2	*M2/2	*M2/2
*G:	*G:	*G:	*G:
=37	=37	=37	=37
2T	2I	4r	(12gL
.	.	.	12b
.	.	.	12ddJ)
.	.	4g 4b	12ddL
.	.	.	12dd
.	.	.	12ddJ
2T	2Vb	2f# 2a	12ddL
.	.	.	12dd
.	.	.	12ddJ
.	.	.	(12ddL
.	.	.	12ee
.	.	.	12ff#J)
=38	=38	=38	=38
*	*	*^	*
4T	4vi	4b	2e	(12ggL
.	.	.	.	12ff#
.	.	.	.	12ggJ)
4T	4viiom7b/V	4cc#	.	(12bbL
.	.	.	.	12aa
.	.	.	.	12ggJ)
2T	2V	[2dd	4d	(12ggL
.	.	.	.	12ee#
.	.	.	.	12ff#J)
.	.	.	4f#	(12ff#L
.	.	.	.	12aa
.	.	.	.	12dddJ)
=39	=39	=39	=39	=39
4T	4V7b/ii	4dd]	4g#	(12dddL
.	.	.	.	12bb
.	.	.	.	12eeJ)
4T	4ii	2ccn	4a	(12eeL
.	.	.	.	12aa
.	.	.	.	12cccJ)
4T	4V7b	.	4f#	(12cccL
.	.	.	.	12aa
.	.	.	.	12ddJ)
4T	4I	4b	4g	(12ddL
.	.	.	.	12gg
.	.	.	.	12bbJ)
*	*	*v	*v	*
*	*	*clefF4	*
=40	=40	=40	=40
4P	4iib	4C 4A	(12eeL
.	.	.	12cc
.	.	.	12aJ)
4D	4V7	4D 4c	(12ccL
.	.	.	12a
.	.	.	12f#J)
2T	2I	4G 4B	4g
.	.	4GG	4r
*-	*-	*-	*-
!!!COM: Mozart
!!!OTL: Zehn Variationen in G, uber die Ariette 'Unser dummer Pobel meint' aus dem Singspiel 'Die Pilgrime von Mekka'
!!!Variation: Variation 3 b
**function	**harm	**kern	**kern
*	*	*clefF4	*clefG2
*	*	*k[f#]	*k[f#]
*M2/2	*M2/2	*M2/2	*M2/2
*G:	*G:	*G:	*G:
=41	=41	=41	=41
2P	2V7d/ii	4r	(12fL
.	.	.	12d#
.	.	.	12eJ
*	*	*^	*
.	.	2e	4d	12aL)
.	.	.	.	(12f#
.	.	.	.	12g#J
4P	4ib/ii	.	4c	12bL)
.	.	.	.	(12g#
.	.	.	.	12aJ
4P	4i/ii	[4e	4A	12ddL)
.	.	.	.	(12b
.	.	.	.	12ccJ
=42	=42	=42	=42	=42
4P	4Vb/ii	4e]	4G#	12ffL)
.	.	.	.	(12dd#
.	.	.	.	12eeJ
4P	4V7d/ii	2e	4d	12aaL)
.	.	.	.	(12ff#
.	.	.	.	12gg#J
4P	4iib	.	(4c	12bbL)
.	.	.	.	(12gg#
.	.	.	.	12aaJ
4P	4ii	4r	8A)	8eee)
.	.	.	8r	8r
=43	=43	=43	=43	=43
2D	2V7d	4r	4r	(12e-L
.	.	.	.	12c#
.	.	.	.	12dJ
.	.	2d	4c	12gL)
.	.	.	.	(12e
.	.	.	.	12f#J
4D	4Ib	.	4B	12aL)
.	.	.	.	(12f#
.	.	.	.	12gJ
4D	4I	[4d	4G	12ccL)
.	.	.	.	(12a#
.	.	.	.	12bJ
=44	=44	=44	=44	=44
4D	4Vb	4d]	4F#	12eeL)
.	.	.	.	(12cc#
.	.	.	.	12ddJ
4D	4V7d	2d	4c	12ggL)
.	.	.	.	(12ee
.	.	.	.	12ff#J
4T	4Ib	.	(4B	12aaL)
.	.	.	.	(12ff#
.	.	.	.	12ggJ
4T	4I	4r	8G)	8ddd)
.	.	.	8r	8r
*	*	*v	*v	*
*-	*-	*-	*-
!!!COM: Mozart
!!!OTL: Zehn Variationen in G, uber die Ariette 'Unser dummer Pobel meint' aus dem Singspiel 'Die Pilgrime von Mekka'
!!!Variation: Variation 3 c
**function	**harm	**kern	**kern
*	*	*clefG2	*clefG2
*	*	*k[f#]	*k[f#]
*M2/2	*M2/2	*M2/2	*M2/2
*G:	*G:	*G:	*G:
=45	=45	=45	=45
2T	2I	4r	(12gL
.	.	.	12b
.	.	.	12ddJ)
.	.	4g 4b	12ddL
.	.	.	12dd
.	.	.	12ddJ
2T	2Vb	2f# 2a	12ddL
.	.	.	12dd
.	.	.	12ddJ
.	.	.	(12ddL
.	.	.	12ee
.	.	.	12ff#J)
=46	=46	=46	=46
*	*	*^	*
4T	4vi	4b	2e	(12ggL
.	.	.	.	12ff#
.	.	.	.	12ggJ)
4T	4viiom7b/V	4cc#	.	(12bbL
.	.	.	.	12aa
.	.	.	.	12ggJ)
2T	2V	[2dd	4d	(12ggL
.	.	.	.	12ee#
.	.	.	.	12ff#J)
.	.	.	4f#	(12ff#L
.	.	.	.	12aa
.	.	.	.	12dddJ)
=47	=47	=47	=47	=47
4T	4V7b/ii	4dd]	4g#	(12dddL
.	.	.	.	12bb
.	.	.	.	12eeJ)
4T	4ii	2ccn	4a	(12eeL
.	.	.	.	12aa
.	.	.	.	12cccJ)
4T	4V7b	.	4f#	(12cccL
.	.	.	.	12aa
.	.	.	.	12ddJ)
4T	4I	4b	4g	(12ddL
.	.	.	.	12gg
.	.	.	.	12bbJ)
*	*	*v	*v	*
*	*	*clefF4	*
=48	=48	=48	=48
4P	4iib	4C 4A	(12eeL
.	.	.	12cc
.	.	.	12aJ)
4D	4V7	4D 4c	(12ccL
.	.	.	12a
.	.	.	12f#J)
2T	2I	4G 4B	4g
.	.	4GG	4r
*-	*-	*-	*-
!!!COM: Mozart
!!!OTL: Zehn Variationen in G, uber die Ariette 'Unser dummer Pobel meint' aus dem Singspiel 'Die Pilgrime von Mekka'
!!!Variation: Variation 4 a
**function	**harm	**kern	**kern
*	*	*clefF4	*clefG2
*	*	*k[f#]	*k[f#]
*M2/2	*M2/2	*M2/2	*M2/2
*G:	*G:	*G:	*G:
=49	=49	=49	=49
2T	2I	4GG 4G	1r
.	.	4GG 4G	.
2T	2Vb	4FF# 4F#	.
.	.	8FF#L 8F#	.
.	.	8GGJ 8G	.
=50	=50	=50	=50
2T	2vi	4EE 4E	2r
.	.	8EEL 8E	.
.	.	8GGJ 8G	.
2T	2V7	2DD 2D	4cc 4ff# 4aa [4ccc
.	.	.	16cccLL]
.	.	.	16bb
.	.	.	16ccc
.	.	.	16bbJJ
=51	=51	=51	=51
4P	4IVb	4EE 4E	16cccLL
.	.	.	16bb
.	.	.	16aa
.	.	.	16ggJJ
4P	4viio	4FF# 4F#	16ff#LL
.	.	.	16ee
.	.	.	16dd
.	.	.	16ccJJ
4P	4I	4GG 4G	16bLL
.	.	.	16gg
.	.	.	16dd
.	.	.	16bJJ
*	*	*^	*
4P	4iib	4A	4C	16aLL
.	.	.	.	16ee
.	.	.	.	16cc
.	.	.	.	16aJJ
=52	=52	=52	=52	=52
4D	4Cc	(4B	2D	16gLL
.	.	.	.	16dd
.	.	.	.	16b
.	.	.	.	16gJJ
4D	4V7	4c)	.	16f#LL
.	.	.	.	16cc
.	.	.	.	16a
.	.	.	.	16f#JJ
2T	2I	4B	4G	4g
*	*	*v	*v	*
.	.	4r	4r
*-	*-	*-	*-
!!!COM: Mozart
!!!OTL: Zehn Variationen in G, uber die Ariette 'Unser dummer Pobel meint' aus dem Singspiel 'Die Pilgrime von Mekka'
!!!Variation: Variation 4 a2
**function	**harm	**kern	**kern
*	*	*clefF4	*clefG2
*	*	*k[f#]	*k[f#]
*M2/2	*M2/2	*M2/2	*M2/2
*G:	*G:	*G:	*G:
=53	=53	=53	=53
2T	2I	4GG 4G	1r
.	.	4GG 4G	.
2T	2Vb	4FF# 4F#	.
.	.	8FF#L 8F#	.
.	.	8GGJ 8G	.
=54	=54	=54	=54
2T	2vi	4EE 4E	2r
.	.	8EEL 8E	.
.	.	8GGJ 8G	.
2T	2V7c/IV	2DD 2D	4cc 4ff 4gg [4bb
.	.	.	16bbLL]
.	.	.	16ccc
.	.	.	16aa
.	.	.	16bbJJ
=55	=55	=55	=55
4P	4IVb	4EE 4E	16cccLL
.	.	.	16bb
.	.	.	16aa
.	.	.	16ggJJ
4P	4viio	4FF# 4F#	16ff#LL
.	.	.	16ee
.	.	.	16dd
.	.	.	16ccJJ
4P	4I	4GG 4G	16bLL
.	.	.	16gg
.	.	.	16dd
.	.	.	16bJJ
*	*	*^	*
4P	4iib	4A	4C	16aLL
.	.	.	.	16ee
.	.	.	.	16cc
.	.	.	.	16aJJ
=56	=56	=56	=56	=56
4D	4Cc	(4B	2D	16gLL
.	.	.	.	16dd
.	.	.	.	16b
.	.	.	.	16gJJ
4D	4V7	4c)	.	16f#LL
.	.	.	.	16cc
.	.	.	.	16a
.	.	.	.	16f#JJ
2T	2I	4B	4G	4g
*	*	*v	*v	*
.	.	4r	4r
*-	*-	*-	*-
!!!COM: Mozart
!!!OTL: Zehn Variationen in G, uber die Ariette 'Unser dummer Pobel meint' aus dem Singspiel 'Die Pilgrime von Mekka'
!!!Variation: Variation 4 b
**function	**harm	**kern	**kern
*	*	*clefF4	*clefG2
*	*	*k[f#]	*k[f#]
*M2/2	*M2/2	*M2/2	*M2/2
*G:	*G:	*G:	*G:
=57	=57	=57	=57
*	*	*	*^
2P	2V7/ii	2EE 2E	2g#	16eLL
.	.	.	.	16d#
.	.	.	.	16e
.	.	.	.	16BJJ
.	.	.	.	16eLL
.	.	.	.	16d#
.	.	.	.	16e
.	.	.	.	16BJJ
2P	2V7b/V/ii	2DD# 2D#	2a	16f#LL
.	.	.	.	16e
.	.	.	.	16f#
.	.	.	.	16BJJ
.	.	.	.	16f#LL
.	.	.	.	16e
.	.	.	.	16f#
.	.	.	.	16BJJ
=58	=58	=58	=58	=58
2P	2V7d/ii	2DDn 2Dn	2b	16g#LL
.	.	.	.	16f#
.	.	.	.	16g#
.	.	.	.	16eJJ
.	.	.	.	16g#LL
.	.	.	.	16f#
.	.	.	.	16g#
.	.	.	.	16eJJ
2P	2Ib/ii	16C#LL	(4cc#	2a
.	.	16BB	.	.
.	.	16C#	.	.
.	.	16AAJJ	.	.
.	.	16C#LL	4ee)	.
.	.	16BB	.	.
.	.	16C#	.	.
.	.	16AAJJ	.	.
=59	=59	=59	=59	=59
2D	2V7	2DD 2D	2f#	16dLL
.	.	.	.	16c#
.	.	.	.	16d
.	.	.	.	16AJJ
.	.	.	.	16dLL
.	.	.	.	16c#
.	.	.	.	16d
.	.	.	.	16AJJ
2D	2V7b	2CC# 2C#	2g	16eLL
.	.	.	.	16d
.	.	.	.	16e
.	.	.	.	16AJJ
.	.	.	.	16eLL
.	.	.	.	16d
.	.	.	.	16e
.	.	.	.	16AJJ
=60	=60	=60	=60	=60
2D	2V7d	2CCn 2Cn	2a	16f#LL
.	.	.	.	16e
.	.	.	.	16f#
.	.	.	.	16dJJ
.	.	.	.	16f#LL
.	.	.	.	16e
.	.	.	.	16f#
.	.	.	.	16dJJ
2T	2Ib	16BBLL	(4b	2g
.	.	16AA	.	.
.	.	16BB	.	.
.	.	16GGJJ	.	.
.	.	16BBLL	4dd)	.
.	.	16AA	.	.
.	.	16BB	.	.
.	.	16GGJJ	.	.
*	*	*	*v	*v
*-	*-	*-	*-
!!!COM: Mozart
!!!OTL: Zehn Variationen in G, uber die Ariette 'Unser dummer Pobel meint' aus dem Singspiel 'Die Pilgrime von Mekka'
!!!Variation: Variation 4 c
**function	**harm	**kern	**kern
*	*	*clefF4	*clefG2
*	*	*k[f#]	*k[f#]
*M2/2	*M2/2	*M2/2	*M2/2
*G:	*G:	*G:	*G:
=61	=61	=61	=61
2T	2I	4GG 4G	1r
.	.	4GG 4G	.
2T	2Vb	4FF# 4F#	.
.	.	8FF#L 8F#	.
.	.	8GGJ 8G	.
=62	=62	=62	=62
2T	2vi	4EE 4E	2r
.	.	8EEL 8E	.
.	.	8GGJ 8G	.
2T	2Vb/vi	2DD# 2D#	4b 4ff# [4bb
.	.	.	16bbLL]
.	.	.	16ccc
.	.	.	16aa
.	.	.	16bbJJ
=63	=63	=63	=63
4P	4IVb	4EE 4E	16cccLL
.	.	.	16bb
.	.	.	16aa
.	.	.	16ggJJ
4P	4viio	4FF# 4F#	16ff#LL
.	.	.	16ee
.	.	.	16dd
.	.	.	16ccJJ
4P	4I	4GG 4G	16bLL
.	.	.	16gg
.	.	.	16dd
.	.	.	16bJJ
*	*	*^	*
4P	4iib	4A	4C	16aLL
.	.	.	.	16ee
.	.	.	.	16cc
.	.	.	.	16aJJ
=64	=64	=64	=64	=64
4D	4Cc	(4B	2D	16gLL
.	.	.	.	16dd
.	.	.	.	16b
.	.	.	.	16gJJ
4D	4V7	4c)	.	16f#LL
.	.	.	.	16cc
.	.	.	.	16a
.	.	.	.	16f#JJ
2T	2I	4B	4G	4g
*	*	*v	*v	*
.	.	4GG	4r
*-	*-	*-	*-
!!!COM: Mozart
!!!OTL: Zehn Variationen in G, uber die Ariette 'Unser dummer Pobel meint' aus dem Singspiel 'Die Pilgrime von Mekka'
!!!Variation: Variation 4 b2
**function	**harm	**kern	**kern
*	*	*clefF4	*clefG2
*	*	*k[f#]	*k[f#]
*M2/2	*M2/2	*M2/2	*M2/2
*G:	*G:	*G:	*G:
=65	=65	=65	=65
*	*	*	*^
2P	2V7/ii	2EE 2E	2g#	16eLL
.	.	.	.	16d#
.	.	.	.	16e
.	.	.	.	16BJJ
.	.	.	.	16eLL
.	.	.	.	16d#
.	.	.	.	16e
.	.	.	.	16BJJ
2P	2V7b/V/ii	2DD# 2D#	2a	16f#LL
.	.	.	.	16e
.	.	.	.	16f#
.	.	.	.	16BJJ
.	.	.	.	16f#LL
.	.	.	.	16e
.	.	.	.	16f#
.	.	.	.	16BJJ
=66	=66	=66	=66	=66
2P	2V7d/ii	2DDn 2Dn	2b	16g#LL
.	.	.	.	16f#
.	.	.	.	16g#
.	.	.	.	16eJJ
.	.	.	.	16g#LL
.	.	.	.	16f#
.	.	.	.	16g#
.	.	.	.	16eJJ
2P	2Ib/ii	16C#LL	4cc#	16aLL
.	.	16BB	.	16g#
.	.	16C#	.	16a
.	.	16AAJJ	.	16eJJ
.	.	16C#LL	16eeLL	4a
.	.	16BB	16dd	.
.	.	16C#	16ee	.
.	.	16AAJJ	16cc#JJ	.
=67	=67	=67	=67	=67
2D	2V7	2DD 2D	2f#	16dLL
.	.	.	.	16c#
.	.	.	.	16d
.	.	.	.	16AJJ
.	.	.	.	16dLL
.	.	.	.	16c#
.	.	.	.	16d
.	.	.	.	16AJJ
2D	2V7b	2CC# 2C#	2g	16eLL
.	.	.	.	16d
.	.	.	.	16e
.	.	.	.	16AJJ
.	.	.	.	16eLL
.	.	.	.	16d
.	.	.	.	16e
.	.	.	.	16AJJ
=68	=68	=68	=68	=68
2D	2V7d	2CCn 2Cn	2a	16f#LL
.	.	.	.	16e
.	.	.	.	16f#
.	.	.	.	16dJJ
.	.	.	.	16f#LL
.	.	.	.	16e
.	.	.	.	16f#
.	.	.	.	16dJJ
2T	2Ib	16BBLL	4b	16gLL
.	.	16AA	.	16f#
.	.	16BB	.	16g
.	.	16GGJJ	.	16dJJ
.	.	16BBLL	16ddLL	4g
.	.	16AA	16cc	.
.	.	16BB	16dd	.
.	.	16GGJJ	16bJJ	.
*	*	*	*v	*v
*-	*-	*-	*-
!!!COM: Mozart
!!!OTL: Zehn Variationen in G, uber die Ariette 'Unser dummer Pobel meint' aus dem Singspiel 'Die Pilgrime von Mekka'
!!!Variation: Variation 4 c2
**function	**harm	**kern	**kern
*	*	*clefF4	*clefG2
*	*	*k[f#]	*k[f#]
*M2/2	*M2/2	*M2/2	*M2/2
*G:	*G:	*G:	*G:
=69	=69	=69	=69
.	.	.	(q32g
2T	2I	4GG 4G	4gg)
.	.	4GG 4G	4r
2T	2Vb	4FF# 4F#	2r
.	.	8FF#L 8F#	.
.	.	8GGJ 8G	.
=70	=70	=70	=70
2T	2vi	4EE 4E	2r
.	.	8EEL 8E	.
.	.	8GGJ 8G	.
2T	2V7b/V	2CC# 2C#	4a 4ee 4gg [4aa
.	.	.	16aaLL]
.	.	.	16bb
.	.	.	16aa
.	.	.	16bbJJ
=71	=71	=71	=71
4T	4V7	4DD 4D	16cccLL
.	.	.	16bb
.	.	.	16aa
.	.	.	16ggJJ
4T	4viio	4FF# 4F#	16ff#LL
.	.	.	16ee
.	.	.	16dd
.	.	.	16ccJJ
4T	4I	4GG 4G	16bLL
.	.	.	16gg
.	.	.	16dd
.	.	.	16bJJ
*	*	*^	*
4P	4iib	4A	4C	16aLL
.	.	.	.	16ee
.	.	.	.	16cc
.	.	.	.	16aJJ
=72	=72	=72	=72	=72
4D	4Cc	(4B	2D	16gLL
.	.	.	.	16dd
.	.	.	.	16b
.	.	.	.	16gJJ
4D	4V7	4c)	.	16f#LL
.	.	.	.	16cc
.	.	.	.	16a
.	.	.	.	16f#JJ
2T	2I	4B	4G	4g
*	*	*v	*v	*
.	.	4GG	4r
*-	*-	*-	*-
!!!COM: Mozart
!!!OTL: Zehn Variationen in g, uber die Ariette 'Unser dummer Pobel meint' aus dem Singspiel 'Die Pilgrime von Mekka'
!!!Variation: Variation 5 a
**function	**harm	**kern	**kern
*	*	*clefF4	*clefG2
*	*	*k[b-e-]	*k[b-e-]
*M2/2	*M2/2	*M2/2	*M2/2
*g:	*g:	*g:	*g:
=73	=73	=73	=73
2T	2i	4r	(8.gL
.	.	.	16aJk)
*	*	*^	*
.	.	4B-	4G	(8.b-L
.	.	.	.	16ccJk)
4T	4Vb	4A	4F#	8dd'L
.	.	.	.	8dd'
4T	4i7d	[4d	4F	8dd'
.	.	.	.	8dd'J
=74	=74	=74	=74	=74
4T	4vi7	4d]	4E	(8.ggL
.	.	.	.	16aaJk)
4T	4VI	2G	4E-	(8.bb-L
.	.	.	.	16cccJk)
2T	2V	.	2D	8ddd'L
.	.	.	.	8ddd'
.	.	4F#	.	8ddd'
.	.	.	.	8ddd'J
*	*	*v	*v	*
=75	=75	=75	=75
4P	4iio	4r	(8eee-L
.	.	.	16aaJk)
.	.	.	16r
4P	4viiob	4A 4c	(8cccL
.	.	.	16ff#Jk)
.	.	.	16r
4P	4ib	4B- 4d	(8ggL
.	.	.	16ddJk)
.	.	.	16r
4P	4iiob	4C 4c	(8ee-L
.	.	.	16aJk)
.	.	.	16r
=76	=76	=76	=76
*	*	*^	*
4D	4Cc	(4B-	2D	(8ddL
.	.	.	.	16gJk)
.	.	.	.	16r
4D	4V7	4A)	.	(8ccL
.	.	.	.	16f#Jk)
.	.	.	.	16r
*	*	*v	*v	*
2T	2i	4G	4g
.	.	4GG	4r
*-	*-	*-	*-
!!!COM: Mozart
!!!OTL: Zehn Variationen in g, uber die Ariette 'Unser dummer Pobel meint' aus dem Singspiel 'Die Pilgrime von Mekka'
!!!Variation: Variation 5 b
**function	**harm	**kern	**kern
*	*	*clefF4	*clefG2
*	*	*k[b-e-]	*k[b-e-]
*M2/2	*M2/2	*M2/2	*M2/2
*g:	*g:	*g:	*g:
=77	=77	=77	=77
2T	2i	(8.GGGL	4r
.	.	16AAAJk)	.
*	*	*	*^
.	.	(8.BBB-L	2dd	2b-
.	.	16CCJk)	.	.
2T	2V7	8DD'L	.	.
.	.	8DD'	.	.
.	.	8DD'	[4cc	[4a
.	.	8DD'J	.	.
=78	=78	=78	=78	=78
2T	2i	(8.GGL	4cc]	4a]
.	.	16AAJk)	.	.
.	.	(8.BB-L	2b-	2g
.	.	16CJk)	.	.
2T	2V	8D'L	.	.
.	.	8D'	.	.
.	.	8D'	4a	4f#
.	.	8D'J	.	.
=79	=79	=79	=79	=79
2T	2i	(8.GL	4r	4r
.	.	16AJk)	.	.
.	.	(8.B-L	(2bb-	4dd
.	.	16cJk)	.	.
2T	2V7	8d'L	.	4cc#
.	.	8d'	.	.
.	.	8d'	[4aa)	4cc
.	.	8d'J	.	.
=80	=80	=80	=80	=80
4D	4Cc	(8dL	4aa]	4b
.	.	8e-	.	.
4D	4Cc	8d	(2gg	4b-
.	.	8c#J)	.	.
2T	2V	4d	.	2a
.	.	4D	4ff#)	.
*	*	*	*v	*v
*-	*-	*-	*-
!!!COM: Mozart
!!!OTL: Zehn Variationen in g, uber die Ariette 'Unser dummer Pobel meint' aus dem Singspiel 'Die Pilgrime von Mekka'
!!!Variation: Variation 5 c
**function	**harm	**kern	**kern
*	*	*clefF4	*clefG2
*	*	*k[b-e-]	*k[b-e-]
*M2/2	*M2/2	*M2/2	*M2/2
*g:	*g:	*g:	*g:
=81	=81	=81	=81
2T	2i	4r	12gL
.	.	.	12a-
.	.	.	12aJ
*	*	*^	*
.	.	4B-	4G	12b-L
.	.	.	.	12cc
.	.	.	.	12cc#J
2T	2Vb	4A	4F#	8dd'L
.	.	.	.	8dd'
.	.	4A-	4F	8dd'
.	.	.	.	8dd'J
=82	=82	=82	=82	=82
4T	4vi	4G	4E	12ggL
.	.	.	.	12aa-
.	.	.	.	12aaJ
4T	4VI	2G	4E-	12bb-L
.	.	.	.	12ccc
.	.	.	.	12ccc#J
2T	2V	.	2D	8ddd'L
.	.	.	.	8ddd'
.	.	4F#	.	8ddd'
.	.	.	.	8ddd'J
*	*	*v	*v	*
=83	=83	=83	=83
4T	4viioD7c	(4C (4F#	16eee-LL
.	.	.	16aa
.	.	.	16bb-
.	.	.	16aaJJ
4T	4viioD7b	4A) 4e-)	16cccLL
.	.	.	16ff#
.	.	.	16gg
.	.	.	16ff#JJ
4T	4ib	4B- 4d	16ggLL
.	.	.	16dd
.	.	.	16ee-
.	.	.	16ddJJ
4P	4iiob	4C 4c	16ee-LL
.	.	.	16a
.	.	.	16b-
.	.	.	16aJJ
=84	=84	=84	=84
*	*	*^	*
4D	4Cc	(4B-	2D	16ddLL
.	.	.	.	16g
.	.	.	.	16a
.	.	.	.	16gJJ
4D	4V7	4A)	.	16ccLL
.	.	.	.	16f#
.	.	.	.	16g
.	.	.	.	16f#JJ
*	*	*v	*v	*
2T	2i	4G	4g
.	.	4GG	4r
*-	*-	*-	*-
!!!COM: Mozart
!!!OTL: Zehn Variationen in G, uber die Ariette 'Unser dummer Pobel meint' aus dem Singspiel 'Die Pilgrime von Mekka'
!!!Variation: Variation 6 a
**function	**harm	**kern	**kern
*	*	*clefG2	*clefG2
*	*	*k[f#]	*k[f#]
*M2/2	*M2/2	*M2/2	*M2/2
*G:	*G:	*G:	*G:
=85	=85	=85	=85
*	*	*^	*
2T	2Ib	4g	4B	[1gg
.	.	4g	4B	.
2T	2V	4f#	4d	.
.	.	8f#L	4d	.
.	.	8gJ	.	.
=86	=86	=86	=86	=86
2T	2IV	4e	4c	4.gg]
.	.	8eL	4c	.
.	.	8gJ	.	16ff#LL
.	.	.	.	16ggJJ
2T	2Ib	2d	2B	16ggLL
.	.	.	.	16bb
.	.	.	.	16aa
.	.	.	.	16cccJJ
.	.	.	.	16bbLL
.	.	.	.	16ddd
.	.	.	.	16ccc
.	.	.	.	16eeeJJ
=87	=87	=87	=87	=87
2T	2V7b	4cc	4f#	[1ddd
.	.	8ccL	8f#L	.
.	.	8ccJ	8f#J	.
2T	2I	(8ccL	4g	.
.	.	8b)	.	.
.	.	8a'	4r	.
.	.	8g'J	.	.
=88	=88	=88	=88	=88
4D	4Cc	4g 4b	2d	4.ddd]
4D	4V7	4f# 4a	.	.
.	.	.	.	16ccc#LL
.	.	.	.	16dddJJ
*	*	*v	*v	*
2T	2I	[2g	4gg
.	.	.	4r
*-	*-	*-	*-
!!!COM: Mozart
!!!OTL: Zehn Variationen in G, uber die Ariette 'Unser dummer Pobel meint' aus dem Singspiel 'Die Pilgrime von Mekka'
!!!Variation: Variation 6 a2
**function	**harm	**kern	**kern
*	*	*clefG2	*clefG2
*	*	*k[f#]	*k[f#]
*M2/2	*M2/2	*M2/2	*M2/2
*G:	*G:	*G:	*G:
=89	=89	=89	=89
*	*	*	*^
2T	2I	1g_	4gg	4b
.	.	.	4gg	4b
2T	2V	.	4ff#	4dd
.	.	.	8ff#L	4dd
.	.	.	8ggJ	.
=90	=90	=90	=90	=90
2T	2IVc	2.g]	4ee	4cc
.	.	.	8eeL	4cc
.	.	.	8ggJ	.
4T	4I	.	2dd	2b
4T	4viio/ii	8.g#L	.	.
.	.	32f#LL	.	.
.	.	32g#JJJ	.	.
*	*	*	*v	*v
=91	=91	=91	=91
4P	4ii	(8aL	4cc
.	.	8e	.
4P	4V7	8f#	[4ccc
.	.	8dJ)	.
4.P	4.I	4g	(8cccL]
.	.	.	8bb)
.	.	8r	8aa'
*	*	*^	*
8P	8viioD7/V	8b-	8c#	8gg'J
=92	=92	=92	=92	=92
4D	4Cc	(4bn	2d	(4gg
*	*	*	*	*^
4D	4V7	4cc)	.	8bb	4ff#
.	.	.	.	8aa	.
2T	2I	4b	4g	4gg)	4gg
*	*	*	*	*v	*v
*	*	*v	*v	*
*	*	*clefF4	*
.	.	4G	4r
*-	*-	*-	*-
!!!COM: Mozart
!!!OTL: Zehn Variationen in G, uber die Ariette 'Unser dummer Pobel meint' aus dem Singspiel 'Die Pilgrime von Mekka'
!!!Variation: Variation 6 b
**function	**harm	**kern	**kern
*	*	*clefF4	*clefG2
*	*	*k[f#]	*k[f#]
*M2/2	*M2/2	*M2/2	*M2/2
*G:	*G:	*G:	*G:
=93	=93	=93	=93
2P	2V7b/ii	4d 4G#	[1ee
.	.	4d 4G#	.
2P	2i/ii	4c 4A	.
*	*	*clefG2	*
.	.	8.r	.
.	.	16cc 16a	.
=94	=94	=94	=94
2P	2V7b/ii	4dd 4g#	2.ee]
.	.	4dd 4g#	.
2P	2ii	4cc 4a	.
.	.	4r	8.ee-L
.	.	.	32ddLL
.	.	.	32ee-JJJ
*	*	*clefF4	*
=95	=95	=95	=95
2D	2V7b	4c 4F#	[1dd
.	.	4c 4F#	.
2D	2I	4B 4G	.
*	*	*clefG2	*
.	.	8.r	.
.	.	16b 16g	.
=96	=96	=96	=96
2D	2V7b	4cc 4f#	1dd]
.	.	4cc 4f#	.
2T	2I	4b 4g	.
.	.	4r	.
*-	*-	*-	*-
!!!COM: Mozart
!!!OTL: Zehn Variationen in G, uber die Ariette 'Unser dummer Pobel meint' aus dem Singspiel 'Die Pilgrime von Mekka'
!!!Variation: Variation 6 c
**function	**harm	**kern	**kern
*	*	*clefG2	*clefG2
*	*	*k[f#]	*k[f#]
*M2/2	*M2/2	*M2/2	*M2/2
*G:	*G:	*G:	*G:
=97	=97	=97	=97
*	*	*^	*
2T	2Ib	4g	4B	[1gg
.	.	4g	4B	.
2T	2V	4f#	4d	.
.	.	8f#L	4d	.
.	.	8gJ	.	.
=98	=98	=98	=98	=98
2T	2IV	4e	4c	4.gg]
.	.	8eL	4c	.
.	.	8gJ	.	16ff#LL
.	.	.	.	16ggJJ
2T	2Ib	2d	2B	16ggLL
.	.	.	.	16bb
.	.	.	.	16aa
.	.	.	.	16cccJJ
.	.	.	.	16bbLL
.	.	.	.	16ddd
.	.	.	.	16ccc
.	.	.	.	16eeeJJ
=99	=99	=99	=99	=99
2T	2V7b	4cc	4f#	[1ddd
.	.	8ccL	8f#L	.
.	.	8ccJ	8f#J	.
2T	2I	(8ccL	4g	.
.	.	8b)	.	.
.	.	8a'	4r	.
.	.	8g'J	.	.
=100	=100	=100	=100	=100
4D	4Cc	4g 4b	2d	4.ddd]
4D	4V7	4f# 4a	.	.
.	.	.	.	16ccc#LL
.	.	.	.	16dddJJ
2T	2I	4g	4g	4gg
*	*	*v	*v	*
.	.	4G	4r
*-	*-	*-	*-
!!!COM: Mozart
!!!OTL: Zehn Variationen in G, uber die Ariette 'Unser dummer Pobel meint' aus dem Singspiel 'Die Pilgrime von Mekka'
!!!Variation: Variation 6 b2
**function	**harm	**kern	**kern
*	*	*clefF4	*clefG2
*	*	*k[f#]	*k[f#]
*M2/2	*M2/2	*M2/2	*M2/2
*G:	*G:	*G:	*G:
=101	=101	=101	=101
*	*	*	*^
2P	2V7/ii	[1E	4dd	4g#
.	.	.	4dd	4g#
2P	2ic/ii	.	4cc	4a
.	.	.	8.r	4r
.	.	.	16aa	.
=102	=102	=102	=102	=102
2P	2V7/ii	2.E]	4ddd	4gg#
.	.	.	4ddd	4gg#
4P	4I/ii	.	(4ccc#	(4aa
4P	4iiom7c	8.E-L	[4ccc)	4gg)
.	.	32DLL	.	.
.	.	32E-JJJ	.	.
=103	=103	=103	=103	=103
2D	2V7	[1D	8cccL]	4ff#
.	.	.	8aa	.
.	.	.	8gg	4cc
.	.	.	8ff#J	.
4D	4Cc	.	8ggL	4b
.	.	.	8dd	.
4D	4V7b/ii	.	8b	4g#
.	.	.	8eeJ	.
=104	=104	=104	=104	=104
4D	4V/V	4.D]	8ddL	4a
.	.	.	8cc#	.
4D	4V	.	8a	[4f#
.	.	16C#LL	8ddJ	.
.	.	16DJJ	.	.
2T	2I	[2GG	(4cc	(4f#]
.	.	.	8b)	8g)
.	.	.	8r	8r
*	*	*	*v	*v
*-	*-	*-	*-
!!!COM: Mozart
!!!OTL: Zehn Variationen in G, uber die Ariette 'Unser dummer Pobel meint' aus dem Singspiel 'Die Pilgrime von Mekka'
!!!Variation: Variation 6 c2
**function	**harm	**kern	**kern
*	*	*clefF4	*clefG2
*	*	*k[f#]	*k[f#]
*M2/2	*M2/2	*M2/2	*M2/2
*G:	*G:	*G:	*G:
=105	=105	=105	=105
*	*	*	*^
4T	4I	1GG_	4gg	4r
4T	4viio/V	.	(4gg	(4cc#
4T	4V	.	4ff#	4dd
4T	4V7/IV	.	4ff	4b
=106	=106	=106	=106	=106
*	*	*	*	*^
4T	4IVc	2.GG]	4ee	2cc)	4r
4T	4viioD7/V	.	4ee-)	.	4f#
4T	4I	.	2dd	2b	4g
4T	4viioD7/ii	8.GG#L	.	.	4f
.	.	32FF#LL	.	.	.
.	.	32GG#JJJ	.	.	.
=107	=107	=107	=107	=107	=107
4P	4V/V	(8AAL	4cc#	2a	4e
.	.	8EE	.	.	.
4P	4V7	8FF#	[4cc	.	[4d
.	.	8DDJ)	.	.	.
4.P	4.I	4GGn	(8ccL]	4g	4d]
.	.	.	8b)	.	.
*	*	*	*	*v	*v
.	.	.	8a'	4B- 4e
8P	8viioD7/V	8C#	8g'	.
=108	=108	=108	=108	=108
4D	4Cc	(4D	(4g	4B 4d
4D	4V7	4DD)	8b	4c 4f#
.	.	.	8aJ	.
2T	2I	4GG	4g)	4B
*	*	*	*v	*v
.	.	4r	4r
*-	*-	*-	*-
!!!COM: Mozart
!!!OTL: Zehn Variationen in G, uber die Ariette 'Unser dummer Pobel meint' aus dem Singspiel 'Die Pilgrime von Mekka'
!!!Variation: Variation 7 a
**function	**harm	**kern	**kern
*	*	*clefF4	*clefG2
*	*	*k[f#]	*k[f#]
*M2/2	*M2/2	*M2/2	*M2/2
*G:	*G:	*G:	*G:
=109	=109	=109	=109
*	*	*^	*
4T	4vi	2G	2E	4B 4g
4T	4viiob/V	.	.	4c# 4g
4T	4V	4A	4D	4d 4f#
4T	4Ib	[4d	4B	(8f#L
.	.	.	.	8gJ)
=110	=110	=110	=110	=110
4T	4V7b/ii	4d]	4G#	4e
4T	4ii	2cn	4A	(8eL
.	.	.	.	8f#J)
4T	4V7b	.	4F#	4d
4T	4I	[4B	4G	8r
.	.	.	.	8dd
=111	=111	=111	=111	=111
4T	4IV7b	4B]	4E	(8ddL
.	.	.	.	8ccJ)
4T	4viio	2A	4F#	8r
.	.	.	.	8cc
4T	4V7b/vi	.	4D#	(8ccL
.	.	.	.	8bJ)
4T	4vi	[4G	4E	8r
.	.	.	.	8ee
=112	=112	=112	=112	=112
4P	4ii7b	4G]	4C	(8eeL
.	.	.	.	8aJ)
4D	4V7	4c	4D 4F#	8r
.	.	.	.	8dd
2T	2I	4B	4G	(8ddL
.	.	.	.	8gJ)
*	*	*v	*v	*
.	.	4GG	4r
*-	*-	*-	*-
!!!COM: Mozart
!!!OTL: Zehn Variationen in G, uber die Ariette 'Unser dummer Pobel meint' aus dem Singspiel 'Die Pilgrime von Mekka'
!!!Variation: Variation 7 a2
**function	**harm	**kern	**kern
*	*	*clefF4	*clefG2
*	*	*k[f#]	*k[f#]
*M2/2	*M2/2	*M2/2	*M2/2
*G:	*G:	*G:	*G:
=113	=113	=113	=113
*	*	*	*^
4T	4I	4r	4r	4gg
4T	4viioD7/iii	4A# 4e	4cc#	4gg
4T	4iii	4B 4d	4dd	4ff#
4T	4viioD7c/vi	4A 4d#	4cc	4ff#
=114	=114	=114	=114	=114
4T	4vib	4G 4e	4b	4ee
4T	4V7/V	4A 4g	4cc#	(8eeL
.	.	.	.	8ff#J)
2T	2V	4d 4f#	[2dd	4dd
.	.	8r	.	4ff#
*	*	*clefG2	*	*
.	.	8b	.	.
=115	=115	=115	=115	=115
4T	4vi7	(8bL	4dd]	4gg
.	.	8eJ)	.	.
4T	4ii	8r	2ccn	4aa
.	.	8a	.	.
4T	4V7	(8aL	.	4ff#
.	.	8dJ)	.	.
4T	4vi	4e	8bL	[4gg
.	.	.	8eeJ	.
=116	=116	=116	=116	=116
*	*	*clefF4	*	*
4P	4ii7b	4C	(8eeL	4gg]
.	.	.	8aJ)	.
4D	4V7	4D 4c	8r	4ff#
.	.	.	8dd	.
2T	2I	4G 4B	(8ddL	4gg
.	.	.	8gJ)	.
*	*	*	*v	*v
.	.	4GG	4r
*-	*-	*-	*-
!!!COM: Mozart
!!!OTL: Zehn Variationen in G, uber die Ariette 'Unser dummer Pobel meint' aus dem Singspiel 'Die Pilgrime von Mekka'
!!!Variation: Variation 7 b
**function	**harm	**kern	**kern
*	*	*clefF4	*clefG2
*	*	*k[f#]	*k[f#]
*M2/2	*M2/2	*M2/2	*M2/2
*G:	*G:	*G:	*G:
=117	=117	=117	=117
1T	1vi	1r	4ee
.	.	.	8ee'L
.	.	.	8dd'J
.	.	.	(8ddL
.	.	.	8cc)
.	.	.	8b'
.	.	.	8a'J
=118	=118	=118	=118
2P	2V/ii	4e	4g#
.	.	8e'L	(4gg#
.	.	8d'J	.
2P	2ii	(8dL	4aa)
.	.	8c)	.
.	.	8B'	4r
.	.	8A'J	.
=119	=119	=119	=119
2D	2V7b	4F#	4dd
.	.	(4f#	8dd'L
.	.	.	8cc'J
2D	2I	4g)	(8ccL
.	.	.	8b)
.	.	4r	8a'
.	.	.	8g'J
=120	=120	=120	=120
2D	2V	4d	4f#
.	.	8d'L	(4ff#
.	.	8c'J	.
2T	2I	(8cL	4gg)
.	.	8B)	.
.	.	8A'	4r
.	.	8G'J	.
*-	*-	*-	*-
!!!COM: Mozart
!!!OTL: Zehn Variationen in G, uber die Ariette 'Unser dummer Pobel meint' aus dem Singspiel 'Die Pilgrime von Mekka'
!!!Variation: Variation 7 c
**function	**harm	**kern	**kern
*	*	*clefF4	*clefG2
*	*	*k[f#]	*k[f#]
*M2/2	*M2/2	*M2/2	*M2/2
*G:	*G:	*G:	*G:
=121	=121	=121	=121
2T	2Ib	4r	4gg
.	.	8B'L	4gg
.	.	8c'J	.
2T	2V	(8c#L	4ff#
.	.	8d)	.
.	.	8A'	(8ff#L
.	.	8B'J	8ggJ)
=122	=122	=122	=122
2T	2IV	(8BL	(8ff#L
.	.	8cn)	8ee)
.	.	8G'	8ee'
.	.	8A'J	8ff#'J
4.T	4.iii	(8A#L	(8eeL
.	.	8B)	8dd)
*	*	*	*^
.	.	8F#'	8r	8dd'
8T	8Vb/ii	8G#'J	8b	8ee'J
=123	=123	=123	=123	=123
4T	4ii	4A	(8bL	(8ddL
.	.	.	8eJ)	8cc)
4T	4V7b	4F#	8r	8cc'
.	.	.	8a	8dd'J
4T	4I	4G	(8aL	(8ccL
.	.	.	8dJ)	8bJ)
4T	4vi	4E	8r	[4g
.	.	.	8e	.
=124	=124	=124	=124	=124
4P	4ii7b	4C	(8eL	(4g] 4a
.	.	.	8AJ)	.
4D	4V7	4D	8r	4f# 4cc
.	.	.	8d	.
2T	2I	4GG	(8dL	4g) 4b
.	.	.	8GJ)	.
*	*	*	*v	*v
.	.	4r	4gg
*-	*-	*-	*-
!!!COM: Mozart
!!!OTL: Zehn Variationen in G, uber die Ariette 'Unser dummer Pobel meint' aus dem Singspiel 'Die Pilgrime von Mekka'
!!!Variation: Variation 7 b2
**function	**harm	**kern	**kern
*	*	*clefF4	*clefG2
*	*	*k[f#]	*k[f#]
*M2/2	*M2/2	*M2/2	*M2/2
*G:	*G:	*G:	*G:
=125	=125	=125	=125
1T	1vi	4E	1r
.	.	8E'L	.
.	.	8D'J	.
.	.	(8DL	.
.	.	8C)	.
.	.	8BB'	.
.	.	8AA'J	.
=126	=126	=126	=126
2P	2V7b/ii	4GG#	4ee
.	.	(8.G#L	8ee'L
.	.	.	8dd'J
.	.	32F#LL	.
.	.	32G#JJJ	.
2P	2ii	4A)	(8ddL
.	.	.	8cc)
.	.	4r	8b'
.	.	.	8a'J
=127	=127	=127	=127
2D	2V	4d	4f#
.	.	8d'L	(8.ff#L
.	.	8c'J	.
.	.	.	32eeLL
.	.	.	32ff#JJJ
2D	2I	(8cL	4gg)
.	.	8B)	.
.	.	8A'	4r
.	.	8G'J	.
=128	=128	=128	=128
2D	2V7b	4F#	4ddd
.	.	(8.f#L	8ddd'L
.	.	.	8ccc'J
.	.	32eLL	.
.	.	32f#JJJ	.
2T	2I	4g)	(8cccL
.	.	.	8bb)
.	.	4r	8aa'
.	.	.	8gg'J
*-	*-	*-	*-
!!!COM: Mozart
!!!OTL: Zehn Variationen in G, uber die Ariette 'Unser dummer Pobel meint' aus dem Singspiel 'Die Pilgrime von Mekka'
!!!Variation: Variation 7 c2
**function	**harm	**kern	**kern
*	*	*clefF4	*clefG2
*	*	*k[f#]	*k[f#]
*M2/2	*M2/2	*M2/2	*M2/2
*G:	*G:	*G:	*G:
=129	=129	=129	=129
2T	2I	4g	4r
.	.	4g	8bb'L
.	.	.	8ccc'J
2T	2Vb	4f#	(8ccc#L
.	.	.	8ddd)
.	.	8f#'L	8aa'
.	.	8g'J	8bb'J
=130	=130	=130	=130
2T	2IVb	(8fL	(8bbL
.	.	8e)	8cccn)
.	.	8e'	8gg'
.	.	8f#'J	8aa'J
4.T	4.iiib	(8eL	(8aa#L
.	.	8d#)	8bb)
.	.	8d'	8ff#'
8T	8V/ii	8e'J	8gg#'J
=131	=131	=131	=131
*	*	*	*^
4.T	4.ii	(8dL	(8eeL	(8gg#L
.	.	8c#)	8aJ)	8aa)
.	.	8c'	8r	8ee'
8T	8V	8d'J	8dd	8ff#'J
4T	4I	(8cL	(8ddL	(8ff#L
.	.	8BJ)	8gJ)	8ggJ)
*	*	*	*v	*v
4T	4vi	8r	(4e 4g 4b
.	.	8E	.
=132	=132	=132	=132
4P	4ii7	(8EL	4e) 4g 4cc
.	.	8AAJ)	.
4D	4V7	8r	(4A 4c 4f#
.	.	8D	.
2T	2I	(8DL	4G) 4B 4g
.	.	8GGJ)	.
.	.	4r	4r
*-	*-	*-	*-
!!!COM: Mozart
!!!OTL: Zehn Variationen in G, uber die Ariette 'Unser dummer Pobel meint' aus dem Singspiel 'Die Pilgrime von Mekka'
!!!Variation: Variation 8 a
**function	**harm	**kern	**kern
*	*	*clefF4	*clefG2
*	*	*k[f#]	*k[f#]
*M2/2	*M2/2	*M2/2	*M2/2
*G:	*G:	*G:	*G:
=133	=133	=133	=133
1T	1I	4GG 4G	16r
.	.	.	16BLL
.	.	.	16g
.	.	.	16BJJ
.	.	4gg	16r
.	.	.	16BLL
.	.	.	16g
.	.	.	16BJJ
.	.	4ff#	16r
.	.	.	16BLL
.	.	.	16g
.	.	.	16BJJ
.	.	4FF# 4F#	16r
.	.	.	16BLL
.	.	.	16g
.	.	.	16BJJ
=134	=134	=134	=134
1T	1vi	4EE 4E	16r
.	.	.	16BLL
.	.	.	16g
.	.	.	16BJJ
.	.	4gg	16r
.	.	.	16BLL
.	.	.	16g
.	.	.	16BJJ
.	.	4dd	16r
.	.	.	16BLL
.	.	.	16g
.	.	.	16BJJ
.	.	4DD 4D	16r
.	.	.	16BLL
.	.	.	16g
.	.	.	16BJJ
=135	=135	=135	=135
2P	2IV	4CC 4C	16r
.	.	.	16eLL
.	.	.	16g
.	.	.	16eJJ
.	.	4ccc	16r
.	.	.	16eLL
.	.	.	16g
.	.	.	16eJJ
2P	2I	4bb	16r
.	.	.	16dLL
.	.	.	16g
.	.	.	16dJJ
.	.	4gg	16r
.	.	.	16BLL
.	.	.	16g
.	.	.	16BJJ
=136	=136	=136	=136
2D	2V7c	4ddd	16r
.	.	.	16ALL
.	.	.	16f#
.	.	.	16AJJ
.	.	4ff#	16r
.	.	.	16cLL
.	.	.	16a
.	.	.	16cJJ
2T	2Ib	4gg	16r
.	.	.	16BLL
.	.	.	16g
.	.	.	16BJJ
.	.	4dd	16r
.	.	.	16BLL
.	.	.	16g
.	.	.	16BJJ
*-	*-	*-	*-
!!!COM: Mozart
!!!OTL: Zehn Variationen in G, uber die Ariette 'Unser dummer Pobel meint' aus dem Singspiel 'Die Pilgrime von Mekka'
!!!Variation: Variation 8 b
**function	**harm	**kern	**kern
*	*	*clefF4	*clefG2
*	*	*k[f#]	*k[f#]
*M2/2	*M2/2	*M2/2	*M2/2
*G:	*G:	*G:	*G:
=137	=137	=137	=137
2P	2V/ii	4EE 4E	16r
.	.	.	16BLL
.	.	.	16g#
.	.	.	16BJJ
.	.	4eee	16r
.	.	.	16BLL
.	.	.	16g#
.	.	.	16BJJ
2P	2ic/ii	4ccc	16r
.	.	.	16cLL
.	.	.	16a
.	.	.	16cJJ
.	.	4aa	16r
.	.	.	16eLL
.	.	.	16cc
.	.	.	16eJJ
=138	=138	=138	=138
2P	2V7/ii	4gg#	16r
.	.	.	16bLL
.	.	.	16dd
.	.	.	16bJJ
.	.	4E 4e	16r
.	.	.	16g#LL
.	.	.	16b
.	.	.	16g#JJ
2P	2ii	4C 4c	16r
.	.	.	16aLL
.	.	.	16ee
.	.	.	16aJJ
.	.	4AA 4A	16r
.	.	.	16eLL
.	.	.	16cc
.	.	.	16eJJ
=139	=139	=139	=139
2D	2V	4DD 4D	16r
.	.	.	16ALL
.	.	.	16f#
.	.	.	16AJJ
.	.	4ddd	16r
.	.	.	16ALL
.	.	.	16f#
.	.	.	16AJJ
2D	2Ic	4bb	16r
.	.	.	16BLL
.	.	.	16g
.	.	.	16BJJ
.	.	4gg	16r
.	.	.	16dLL
.	.	.	16b
.	.	.	16dJJ
=140	=140	=140	=140
2D	2V7	4ff#	16r
.	.	.	16aLL
.	.	.	16cc
.	.	.	16aJJ
.	.	4D 4d	16r
.	.	.	16f#LL
.	.	.	16a
.	.	.	16f#JJ
2T	2I	4BB 4B	16r
.	.	.	16gLL
.	.	.	16dd
.	.	.	16gJJ
.	.	4GG 4G	16r
.	.	.	16dLL
.	.	.	16b
.	.	.	16dJJ
*-	*-	*-	*-
!!!COM: Mozart
!!!OTL: Zehn Variationen in G, uber die Ariette 'Unser dummer Pobel meint' aus dem Singspiel 'Die Pilgrime von Mekka'
!!!Variation: Variation 8 c
**function	**harm	**kern	**kern
*	*	*clefF4	*clefG2
*	*	*k[f#]	*k[f#]
*M2/2	*M2/2	*M2/2	*M2/2
*G:	*G:	*G:	*G:
=141	=141	=141	=141
1T	1I	4GG 4G	16r
.	.	.	16BLL
.	.	.	16g
.	.	.	16BJJ
.	.	4gg	16r
.	.	.	16BLL
.	.	.	16g
.	.	.	16BJJ
.	.	4FF# 4F#	16r
.	.	.	16BLL
.	.	.	16g
.	.	.	16BJJ
.	.	4ff#	16r
.	.	.	16BLL
.	.	.	16g
.	.	.	16BJJ
=142	=142	=142	=142
2T	2vi	4EE 4E	16r
.	.	.	16BLL
.	.	.	16g
.	.	.	16BJJ
.	.	4ee	16r
.	.	.	16BLL
.	.	.	16g
.	.	.	16BJJ
2T	2Ic	4DD 4D	16r
.	.	.	16BLL
.	.	.	16g
.	.	.	16BJJ
.	.	4dd	16r
.	.	.	16BLL
.	.	.	16g
.	.	.	16BJJ
=143	=143	=143	=143
2P	2IV	4CC 4C	16r
.	.	.	16eLL
.	.	.	16g
.	.	.	16eJJ
.	.	4ccc	16r
.	.	.	16eLL
.	.	.	16g
.	.	.	16eJJ
2P	2Ib	4bb	16r
.	.	.	16dLL
.	.	.	16g
.	.	.	16dJJ
.	.	4gg	16r
.	.	.	16BLL
.	.	.	16g
.	.	.	16BJJ
=144	=144	=144	=144
2D	2V7c	4ddd	16r
.	.	.	16ALL
.	.	.	16f#
.	.	.	16AJJ
.	.	4ff#	16r
.	.	.	16cLL
.	.	.	16a
.	.	.	16cJJ
2T	2Ib	4gg	16r
.	.	.	16BLL
.	.	.	16g
.	.	.	16BJJ
.	.	4dd	16r
.	.	.	16BLL
.	.	.	16g
.	.	.	16BJJ
*-	*-	*-	*-
!!!COM: Mozart
!!!OTL: Zehn Variationen in G, uber die Ariette 'Unser dummer Pobel meint' aus dem Singspiel 'Die Pilgrime von Mekka'
!!!Variation: Variation 8 b2
**function	**harm	**kern	**kern
*	*	*clefF4	*clefG2
*	*	*k[f#]	*k[f#]
*M2/2	*M2/2	*M2/2	*M2/2
*G:	*G:	*G:	*G:
=145	=145	=145	=145
2P	2V/ii	4EE 4E	16r
.	.	.	16BLL
.	.	.	16g#
.	.	.	16BJJ
.	.	4eee	16r
.	.	.	16BLL
.	.	.	16g#
.	.	.	16BJJ
2P	2ic/ii	4ccc	16r
.	.	.	16cLL
.	.	.	16a
.	.	.	16cJJ
.	.	4aa	16r
.	.	.	16eLL
.	.	.	16cc
.	.	.	16eJJ
=146	=146	=146	=146
2P	2V7/ii	4gg#	16r
.	.	.	16bLL
.	.	.	16dd
.	.	.	16bJJ
.	.	4E 4e	16r
.	.	.	16g#LL
.	.	.	16b
.	.	.	16g#JJ
2P	2ii	4C 4c	16r
.	.	.	16aLL
.	.	.	16ee
.	.	.	16aJJ
.	.	4AA 4A	16r
.	.	.	16eLL
.	.	.	16cc
.	.	.	16eJJ
=147	=147	=147	=147
2D	2V	4DD 4D	16r
.	.	.	16ALL
.	.	.	16f#
.	.	.	16AJJ
.	.	4ddd	16r
.	.	.	16ALL
.	.	.	16f#
.	.	.	16AJJ
2D	2Ic	4bb	16r
.	.	.	16BLL
.	.	.	16g
.	.	.	16BJJ
.	.	4gg	16r
.	.	.	16dLL
.	.	.	16b
.	.	.	16dJJ
=148	=148	=148	=148
2D	2V7	4ff#	16r
.	.	.	16aLL
.	.	.	16cc
.	.	.	16aJJ
.	.	4D 4d	16r
.	.	.	16f#LL
.	.	.	16a
.	.	.	16f#JJ
2T	2I	4BB 4B	16r
.	.	.	16gLL
.	.	.	16dd
.	.	.	16gJJ
.	.	4GG 4G	16r
.	.	.	16dLL
.	.	.	16b
.	.	.	16dJJ
*-	*-	*-	*-
!!!COM: Mozart
!!!OTL: Zehn Variationen in G, uber die Ariette 'Unser dummer Pobel meint' aus dem Singspiel 'Die Pilgrime von Mekka'
!!!Variation: Variation 8 c2
**function	**harm	**kern	**kern
*	*	*clefF4	*clefG2
*	*	*k[f#]	*k[f#]
*M2/2	*M2/2	*M2/2	*M2/2
*G:	*G:	*G:	*G:
=149	=149	=149	=149
1T	1I	4GG 4G	16r
.	.	.	16BLL
.	.	.	16g
.	.	.	16BJJ
.	.	4gg	16r
.	.	.	16BLL
.	.	.	16g
.	.	.	16BJJ
.	.	4FF# 4F#	16r
.	.	.	16BLL
.	.	.	16g
.	.	.	16BJJ
.	.	4ff#	16r
.	.	.	16BLL
.	.	.	16g
.	.	.	16BJJ
=150	=150	=150	=150
2T	2V7d/IV	4FF 4F	16r
.	.	.	16BLL
.	.	.	16g
.	.	.	16BJJ
.	.	4ff	16r
.	.	.	16BLL
.	.	.	16g
.	.	.	16BJJ
2T	2IVb	4EE 4E	16r
.	.	.	16cLL
.	.	.	16g
.	.	.	16cJJ
.	.	4ee	16r
.	.	.	16cLL
.	.	.	16g
.	.	.	16cJJ
=151	=151	=151	=151
2P	2Gr	4EE- 4E-	16r
.	.	.	16c#LL
.	.	.	16g
.	.	.	16c#JJ
.	.	4ee-	16r
.	.	.	16c#LL
.	.	.	16g
.	.	.	16c#JJ
2P	2Ic	4DD 4D	16r
.	.	.	16dLL
.	.	.	16g
.	.	.	16dJJ
.	.	4dd	16r
.	.	.	16dLL
.	.	.	16g
.	.	.	16dJJ
=152	=152	=152	=152
1P	1viioD7/V	[1CC# [1C#	16r
.	.	.	16eLL
.	.	.	16g
.	.	.	16eJJ
.	.	.	16b-LL
.	.	.	16g
.	.	.	16cc#
.	.	.	16b-JJ
.	.	.	16eeLL
.	.	.	16cc#
.	.	.	16gg
.	.	.	16eeJJ
.	.	.	16bb-LL
.	.	.	16gg
.	.	.	16ccc#
.	.	.	16bb-JJ
=153	=153	=153	=153
1P	1viioD7/V	1CC#] 1C#]	16eeeLL
.	.	.	16ccc#
.	.	.	16bb-
.	.	.	16ccc#JJ
.	.	.	16ggLL
.	.	.	16bb-
.	.	.	16ee
.	.	.	16ggJJ
.	.	.	16cc#LL
.	.	.	16ee
.	.	.	16b-
.	.	.	16cc#JJ
.	.	.	16gLL
.	.	.	16b-
.	.	.	16e
.	.	.	16gJJ
=154	=154	=154	=154
4D	4V7d	4Cn 4cn	16f#LL
.	.	.	16d
.	.	.	16c#
.	.	.	16dJJ
4D	4Ib	4BB 4B	16gLL
.	.	.	16d
.	.	.	16c#
.	.	.	16dJJ
4D	4Vc	4AA 4A	16f#LL 16a
.	.	.	16d
.	.	.	16c#
.	.	.	16dJJ
4D	4I	4GG 4G	16gLL 16b
.	.	.	16d
.	.	.	16c#
.	.	.	16dJJ
=155	=155	=155	=155
1D	1V7b	4FF# 4F#	16ccLL
.	.	.	16a
.	.	.	16b
.	.	.	16ccJJ
.	.	4r	16ddLL
.	.	.	16ee
.	.	.	16ff#
.	.	.	16ggJJ
.	.	2r	16aaLL
.	.	.	16gg
.	.	.	16ff#
.	.	.	16ggJJ
.	.	.	16aaLL
.	.	.	16bb
.	.	.	16aa
.	.	.	16bbJJ
=156	=156	=156	=156
1D	1V7b	2r	16cccLL
.	.	.	16ddd
.	.	.	16eee
.	.	.	16dddJJ
.	.	.	16cccLL
.	.	.	16bb
.	.	.	16aa
.	.	.	16gg#JJ
*	*	*clefG2	*
.	.	[4cc	16aaLL
.	.	.	16bb
.	.	.	16ccc
.	.	.	16bbJJ
.	.	16ccLL]	16aaLL
.	.	16b	16gg
.	.	16a	16ff#
.	.	16gJJ	16eeJJ
=157	=157	=157	=157
1D	1V7b	[4a	16ff#LL
.	.	.	16gg
.	.	.	16aa
.	.	.	16ggJJ
.	.	16aLL]	16ff#LL
.	.	16g	16ee
.	.	16f#	16dd
.	.	16eJJ	16cc#JJ
.	.	8f#L	16ddLL
.	.	.	16dd#
.	.	16gL	16ee
.	.	16f#JJ	16ddJJ
.	.	16eLL	16ccLL
.	.	16d	16b
.	.	16c	16a
.	.	16BJJ	16g#JJ
*	*	*clefF4	*
=158	=158	=158	=158
1D	1V7b	[4c	16aLL
.	.	.	16b
.	.	.	16cc
.	.	.	16bJJ
.	.	16cLL]	16aLL
.	.	16B	16gn
.	.	16A	16f#
.	.	16GJJ	16eJJ
.	.	[4A	16f#LL
.	.	.	16g
.	.	.	16a
.	.	.	16gJJ
.	.	16ALL]	16f#LL
.	.	16G	16e
.	.	16F#	16d
.	.	16EJJ	16c#JJ
=159	=159	=159	=159
1D	1V7b	8F#L	16dLL
.	.	.	16d#
.	.	16GL	16e
.	.	16F#JJ	16dJJ
.	.	16ELL	16cnLL
*	*	*	*clefF4
.	.	16D	16B
.	.	16C	16A
.	.	16BBJJ	16G#JJ
.	.	[4C	16ALL
.	.	.	16B
.	.	.	16c
.	.	.	16BJJ
.	.	16CLL]	16ALL
.	.	16BB	16G
.	.	16AA	16F#
.	.	16GGJJ	16EJJ
=160	=160	=160	=160
1D	1V7b	[4AA	16F#LL
.	.	.	16G
.	.	.	16A
.	.	.	16GJJ
.	.	16AALL]	16F#LL
.	.	16GG	16E
.	.	16FF#	16D
.	.	16EEJJ	16C#JJ
.	.	8FF#L	16DLL
.	.	.	16D#
.	.	16GGL	16E
.	.	16FF#JJ	16DJJ
.	.	16EELL	16CLL
.	.	16DD	16BB
.	.	16CC	16AA
.	.	16BBBJJ	16GG#JJ
=161	=161	=161	=161
1D	1V7b	4.CC	16AALL
.	.	.	16BB
.	.	.	16C
.	.	.	16BBJJ
.	.	.	16AALL
.	.	.	16BB
.	.	8BBB	16GGn
.	.	.	16AAJJ
.	.	4.AAA	16FF#LL
.	.	.	16GG
.	.	.	16AA
.	.	.	16GGJJ
.	.	.	16FF#LL
.	.	.	16GG
.	.	8GGG	16EE
.	.	.	16FF#JJ
=162	=162	=162	=162
1D	1V7b	2FFF#;	[2DD;
.	.	.	q16.DDLL]
.	.	.	q64EELL
.	.	.	q64FF#JJJ
.	.	.	q64GGLLL
.	.	.	q64AA
.	.	.	q64BB
.	.	.	q64C#
.	.	.	q64D
.	.	.	q64E
.	.	.	q64F#
.	.	.	q64GJJJJ
.	.	.	q64ALLLL
.	.	.	q64B
*	*	*	*clefG2
.	.	.	q64c#
.	.	.	q64d
.	.	.	q64e
.	.	.	q64f#
.	.	.	q64g
.	.	.	q64aJJJ
.	.	.	q64bLLL
.	.	.	q64cc#
.	.	.	q64dd
.	.	.	q64ee
.	.	.	q64ff#
.	.	.	q64gg
.	.	.	q64aa
.	.	.	q64bbJJJJ
.	.	.	(q8cccn'L
.	.	.	q8aa'
.	.	.	q8ff#'
.	.	.	q8dd'J)
.	.	.	q8cc#;
.	.	.	q8.cc;
.	.	.	(q32ddLLL
.	.	.	q32ccJJ
.	.	.	(q32bLL)
.	.	.	q32cc
.	.	.	q32b
.	.	.	q32ccJJ
.	.	.	q32bLL
.	.	.	q32cc
.	.	.	q32b
.	.	.	q32ccJJ
.	.	.	q32bLL
.	.	.	q32cc
.	.	.	q32b
.	.	.	q32ccJJJ)
.	.	2r	(8ddL
.	.	.	8cc
.	.	.	8b
.	.	.	8aJ)
*-	*-	*-	*-
!!!COM: Mozart
!!!OTL: Zehn Variationen in G, uber die Ariette 'Unser dummer Pobel meint' aus dem Singspiel 'Die Pilgrime von Mekka'
!!!Variation: Variation 9 a
**function	**harm	**kern	**kern
*	*	*clefF4	*clefG2
*	*	*k[f#]	*k[f#]
*M2/2	*M2/2	*M2/2	*M2/2
*G:	*G:	*G:	*G:
=163	=163	=163	=163
1T	1I	2GG 2G	([4g
.	.	.	32gLLL]
.	.	.	32b
.	.	.	32dd
.	.	.	32ggJJ
.	.	.	24ddL
.	.	.	24b
.	.	.	24gJJ)
.	.	4r	8bb
.	.	.	16.r
.	.	.	32g
.	.	4GG 4G	(8.gL
.	.	.	32f#LL
.	.	.	32gJJJ)
=164	=164	=164	=164
1T	1Vb	2FF# 2F#	[4f#
.	.	.	32f#LLL]
.	.	.	32a
.	.	.	32dd
.	.	.	32aJJ
.	.	.	32ff#LL
.	.	.	32dd
.	.	.	32aa
.	.	.	32ff#JJJ
.	.	4r	8ddd
.	.	.	16.r
.	.	.	32f#
.	.	4FF# 4F#	(8.f#L
.	.	.	32eLL
.	.	.	32f#JJJ)
=165	=165	=165	=165
2T	2vi	4EE 4E	8e
.	.	.	(4eee
.	.	4r	.
.	.	.	16dddLL
.	.	.	16ccc#JJ)
2P	2ii7	2A 2e 2g	(16bbLL
.	.	.	16aa
.	.	.	16gg#
.	.	.	16aaJJ
.	.	.	16bb-LL
.	.	.	16bb
.	.	.	16ccc
.	.	.	16ccc#JJ)
=166	=166	=166	=166
1D	1V	([2d 2e 2g	(4.ccc#
.	.	.	16.eeeLL
.	.	.	32dddJJk)
.	.	8d]) 8f#	8dd
.	.	8r	4d
.	.	8D 8F#	.
.	.	8r	[8d
=167	=167	=167	=167
2D	2IVb	2E 2G	16dLL]
.	.	.	(16cn
.	.	.	16e
.	.	.	16gJJ
.	.	.	16ccnLL
.	.	.	16ee
.	.	.	16gg
.	.	.	16cccnJJ)
*	*	*^	*
2D	2V7b	2F#	4A	(8eee
.	.	.	.	4ddd
.	.	.	4d	.
.	.	.	.	[8ccc)
*	*	*v	*v	*
=168	=168	=168	=168
2D	2I	8G	(16cccLL]
.	.	.	16bb
.	.	8r	16ddd
.	.	.	16ff#JJ
.	.	8B	16aaLL
.	.	.	16gg
.	.	8r	16bb
.	.	.	16dd#JJ)
2P	2IV	8c	(16ff#LL
.	.	.	16ee
.	.	8r	16gg
.	.	.	16bJJ
.	.	4r	16ddLL
.	.	.	16cc
.	.	.	16b
.	.	.	16aJJ)
=169	=169	=169	=169
2.D	2.Cc	[2D [2B	[4dd
.	.	.	16ddLL]
.	.	.	16dd#J
.	.	.	24eeL
.	.	.	24cc
.	.	.	24aJJ
.	.	8D] 8B]	8g
.	.	8r	8r
4D	4V	8D 8A	8f#
.	.	8r	8r
=170	=170	=170	=170
1T	1I	(4G	(2c 2d 2f# 2a
.	.	4D)	.
.	.	8GG	8B) 8g
.	.	8r	8r
.	.	4r	4r
*-	*-	*-	*-
!!!COM: Mozart
!!!OTL: Zehn Variationen in G, uber die Ariette 'Unser dummer Pobel meint' aus dem Singspiel 'Die Pilgrime von Mekka'
!!!Variation: Variation 9 a2
**function	**harm	**kern	**kern
*	*	*clefG2	*clefF4
*	*	*k[f#]	*k[f#]
*M2/2	*M2/2	*M2/2	*M2/2
=171	=171	=171	=171
1T	1I	2GG 2G	([4g
.	.	.	28gLL]
.	.	.	28a
.	.	.	28b
.	.	.	28cc
.	.	.	28dd
.	.	.	56eeL
.	.	.	56ff#
.	.	.	56gg
.	.	.	56JJJ
.	.	4r	8bb)
.	.	.	16.r
.	.	.	32g
.	.	4GG 4G	(8.gL
.	.	.	32f#LL
.	.	.	32gJJJ)
=172	=172	=172	=172
1T	1Vb	2FF# 2F#	[4f#
.	.	.	(60f#LLL]
.	.	.	60a
.	.	.	60g
.	.	.	60f#
.	.	.	60g
.	.	.	60a
.	.	.	60b
.	.	.	60cc#
.	.	.	60dd
.	.	.	60ee
.	.	.	60ff#
.	.	.	60gg
.	.	.	60aa
.	.	.	60bb
.	.	.	60ccc#JJJ
.	.	4r	8ddd)
.	.	.	16.r
.	.	.	32f#
.	.	4FF# 4F#	(8.f#L
.	.	.	32eLL
.	.	.	32f#JJJ)
=173	=173	=173	=173
2T	2vi	4EE 4E	(24gLL
.	.	.	24e)
.	.	.	24b'J
.	.	.	(24aL
.	.	.	24g)
.	.	.	24ee'JJ
.	.	4r	(24ddLL
.	.	.	24cc#)
.	.	.	24gg'J
.	.	.	(24ff#L
.	.	.	24ee)
.	.	.	24bb'JJ
2P	2V7/ii	2A 2e 2g	(24aaLL
.	.	.	24gg)
.	.	.	24eee'J
.	.	.	(24dddL
.	.	.	24ccc#
.	.	.	24bbJJ
.	.	.	24aaLL
.	.	.	24gg#
.	.	.	24aaJ
.	.	.	24bb-L
.	.	.	24bb
.	.	.	24ccc#JJ)
=174	=174	=174	=174
1D	1V	([2d 2e 2g	(4.ccc#
.	.	.	16.eeeLL
.	.	.	32dddJJk)
.	.	8d]) 8f#	8dd
.	.	8r	4d
.	.	8D 8F#	.
.	.	8r	[8d
=175	=175	=175	=175
2D	2IVb	2E 2G	32dLLL]
.	.	.	32cn
.	.	.	32e
.	.	.	32dJJ
.	.	.	32fLL
.	.	.	32e
.	.	.	32g
.	.	.	32fJJJ
.	.	.	32aLLL
.	.	.	32g
.	.	.	32b
.	.	.	32aJJ
.	.	.	32ccLL
.	.	.	32b
.	.	.	32dd
.	.	.	32ccJJJ
*	*	*^	*
2D	2Vb	2F#	4A	32eeLLL
.	.	.	.	32dd
.	.	.	.	32ff#
.	.	.	.	32eeJJ
.	.	.	.	32ggLL
.	.	.	.	32ff#
.	.	.	.	32aa
.	.	.	.	32ggJJJ
.	.	.	4d	32bbLLL
.	.	.	.	32aa
.	.	.	.	32ccc
.	.	.	.	32bbJJ
.	.	.	.	32dddLL
.	.	.	.	32ccc
.	.	.	.	32eee
.	.	.	.	32cccJJJ
*	*	*v	*v	*
=176	=176	=176	=176
2D	2I	8d 8G	(24aa#LL
.	.	.	24bb)
.	.	.	24ddd'J
.	.	8r	(24ff#L
.	.	.	24gg)
.	.	.	24bb'JJ
.	.	4r	(24dd#LL
.	.	.	24ee)
.	.	.	24gg'J
.	.	.	(24bL
.	.	.	24cc)
.	.	.	24ee'JJ
2P	2iib	8e 8c	(24g#LL
.	.	.	24a)
.	.	.	24eeJ
.	.	8r	24dd#L
.	.	.	24dd
.	.	.	24cc#JJ
.	.	4r	24ccLL
.	.	.	24b
.	.	.	24aJ
.	.	.	24bL
.	.	.	24cc
.	.	.	24cc#JJ
=177	=177	=177	=177
2.D	2.Cc	[2D [2B	[4dd
.	.	.	(16.ddLL]
.	.	.	32dd#Jk
.	.	.	24eeL
.	.	.	24cc
.	.	.	24aJJ)
.	.	8D] 8B]	8g
.	.	8r	8r
4D	4V	8D 8A	8f#
.	.	8r	8r
=178	=178	=178	=178
1T	1I	(4G	(2c [2d 2f# 2a
.	.	4D)	.
.	.	8GG	8B) 8d] 8g
.	.	8r	8r
.	.	4r	4r
*-	*-	*-	*-
!!!COM: Mozart
!!!OTL: Zehn Variationen in G, uber die Ariette 'Unser dummer Pobel meint' aus dem Singspiel 'Die Pilgrime von Mekka'
!!!Variation: Variation 9 b
**function	**harm	**kern	**kern
*	*	*clefF4	*clefG2
*	*	*k[f#]	*k[f#]
*M2/2	*M2/2	*M2/2	*M2/2
*G:	*G:	*G:	*G:
=179	=179	=179	=179
1P	1V7b/ii	4GGG# 4GG#	4..E 4..B 4..d 4..e
.	.	4GG#	.
.	.	.	16e
.	.	4GGG# 4GG#	4..E 4..B 4..d 4..e
.	.	4GG#	.
.	.	.	16e
=180	=180	=180	=180
1P	1i/ii	2AAA 2AA	4E 4A 4c [4e
.	.	.	32eLLL]
.	.	.	32d
.	.	.	32c
.	.	.	32BJJ
.	.	.	32ALL
.	.	.	32B
.	.	.	32c
.	.	.	32dJJJ
.	.	2r	32eLLL
.	.	.	32f#
.	.	.	32g#
.	.	.	32aJJ
.	.	.	32bLL
.	.	.	32cc
.	.	.	32dd
.	.	.	32eeJJJ
.	.	.	24ff#LL
.	.	.	24gg#
.	.	.	24aaJ
.	.	.	24bbL
.	.	.	24ccc
.	.	.	24dddJJ
*	*	*clefG2	*
=181	=181	=181	=181
1P	1V7/ii	4e 4g# 4dd	4eee
.	.	4e 4g# 4dd	4eee
.	.	4e 4g# 4dd	4eee
.	.	4e 4g# 4dd	4eee
=182	=182	=182	=182
1P	1ii	4a 4cc	(4.eee
.	.	4r	.
.	.	.	8ccc)
.	.	2r	8aa
.	.	.	8r
.	.	.	4r
*	*	*clefF4	*clefF4
=183	=183	=183	=183
1D	1V7b	4FFF# 4FF#	4..D 4..A 4..c 4..d
.	.	4FF#	.
.	.	.	16d
.	.	4FFF# 4FF#	4..D 4..A 4..c 4..d
.	.	4FF#	.
.	.	.	16d
=184	=184	=184	=184
1D	1I	2GGG 2GG	4D 4G 4B [4d
.	.	.	32dLLL]
.	.	.	32c
.	.	.	32B
.	.	.	32AJJ
.	.	.	32GLL
.	.	.	32A
.	.	.	32B
.	.	.	32cJJJ
*	*	*	*clefG2
.	.	2r	32dLLL
.	.	.	32e
.	.	.	32f#
.	.	.	32gJJ
.	.	.	32aLL
.	.	.	32b
.	.	.	32cc
.	.	.	32ddJJJ
.	.	.	24eeLL
.	.	.	24ff#
.	.	.	24ggJ
.	.	.	24aaL
.	.	.	24bb
.	.	.	24cccJJ
*	*	*clefG2	*
=185	=185	=185	=185
1D	1V7	4d 4f# 4cc	(8ddd'L
.	.	.	8ddd'
.	.	4d 4f# 4cc	8ddd'
.	.	.	8ddd'J
.	.	4d 4f# 4cc	8ddd'L
.	.	.	8ddd'
.	.	4d 4f# 4cc	8ddd'
.	.	.	8ddd'J)
=186	=186	=186	=186
1T	1I	4g 4b	(8.dddL
.	.	.	16bbJk
.	.	4r	32dddLLL
.	.	.	32bb
.	.	.	32ddd
.	.	.	32bbJJ
.	.	.	32dddLL
.	.	.	32bb
.	.	.	32ddd
.	.	.	32bbJJJ
.	.	2r	8gg)
.	.	.	8r
.	.	.	4r
*-	*-	*-	*-
!!!COM: Mozart
!!!OTL: Zehn Variationen in G, uber die Ariette 'Unser dummer Pobel meint' aus dem Singspiel 'Die Pilgrime von Mekka'
!!!Variation: Variation 9 c
**function	**harm	**kern	**kern
*	*	*clefF4	*clefG2
*	*	*k[f#]	*k[f#]
*M2/2	*M2/2	*M2/2	*M2/2
*G:	*G:	*G:	*G:
=187	=187	=187	=187
1T	1I	2GG 2G	[8gL
.	.	.	24gL]
.	.	.	24a'
.	.	.	24b'JJ
.	.	.	24cc'LL
.	.	.	24dd'
.	.	.	24ee'J
.	.	.	24ff#'L
.	.	.	24gg'
.	.	.	24aa'JJ
.	.	4r	8bb
.	.	.	16.r
.	.	.	32g
.	.	4GG 4G	(8.gL
.	.	.	32f#LL
.	.	.	32gJJJ)
=188	=188	=188	=188
1T	1Vb	2FF# 2F#	24f#'LL
.	.	.	24g'
.	.	.	24a'J
.	.	.	24bL
.	.	.	24cc#'
.	.	.	24dd'JJ
.	.	.	24ee'LL
.	.	.	24ff#'
.	.	.	24gg'J
.	.	.	24aa'L
.	.	.	24bb'
.	.	.	24ccc#'JJ
.	.	4r	8ddd
.	.	.	16.r
.	.	.	32f#
.	.	4FF# 4F#	(8.f#L
.	.	.	32eLL
.	.	.	32f#JJJ)
=189	=189	=189	=189
2P	2V7c/V	4EE 4E	(16eLL
.	.	.	16cc#
.	.	.	16g
.	.	.	16eeJJ
.	.	4r	16cc#LL
.	.	.	16gg
.	.	.	16ee
.	.	.	16ccc#JJ)
2P	2V7/V	2A 2e 2g	(16ggLL
.	.	.	16eee
.	.	.	16ddd
.	.	.	16ccc#JJ
.	.	.	16bbLL
.	.	.	16aa
.	.	.	16gg#
.	.	.	16aaJJ)
=190	=190	=190	=190
*	*	*clefG2	*
*	*	*^	*
2D	2Cc	[2d	4g	(4.aa
.	.	.	8f#L	.
.	.	.	8eJ	8ddd)
2D	2V	8d]	8f#	8ddL
*	*	*v	*v	*
.	.	8r	8dd
.	.	(4D 4F#	8dd
.	.	.	[8dJ [8dd
=191	=191	=191	=191
4D	4viiob/V	4E 4G	8d] 8dd]
.	.	.	4c# 4cc#
4D	4Gr	4G 4B-	.
.	.	.	4e- 4ee-
4D	4Vb	4F# 4A	.
.	.	.	4d 4dd
4D	4viioD7/vi	4D#) 4F#	.
.	.	.	8c [8cc
=192	=192	=192	=192
*	*	*^	*
2D	2vi	4E	2.G	(12ccL]
.	.	.	.	12b
.	.	.	.	12ggJ)
.	.	4BBn	.	(12ff#'L
.	.	.	.	12ff'
.	.	.	.	12ee'J)
2P	2IV	2C	.	(8dd#
.	.	.	.	4ee)
.	.	.	4E	.
.	.	.	.	(32ddLLL
.	.	.	.	32cc
.	.	.	.	32b
.	.	.	.	32aJJJ)
*	*	*v	*v	*
=193	=193	=193	=193
2D	2Cc	[2D (2B	16ddLL
.	.	.	16cc#
.	.	.	16cc
.	.	.	16bJJ
.	.	.	16ddLL
.	.	.	16cc#
.	.	.	16cc
.	.	.	16bJJ
2D	2V7	8D] 8A)	8ddL
.	.	8r	8ccJ
.	.	8D 8c	8..r
.	.	8r	.
.	.	.	32f#
=194	=194	=194	=194
1T	1I	(4G	(2c 2d 2f# 2a
.	.	4D)	.
.	.	8GG	8B) 8d 8g
.	.	8r	8r
.	.	4r	4r
*-	*-	*-	*-
!!!COM: Mozart
!!!OTL: Zehn Variationen in G, uber die Ariette 'Unser dummer Pobel meint' aus dem Singspiel 'Die Pilgrime von Mekka'
!!!Variation: Variation 9 b2
**function	**harm	**kern	**kern
*	*	*clefF4	*clefG2
*	*	*k[f#]	*k[f#]
*M2/2	*M2/2	*M2/2	*M2/2
*G:	*G:	*G:	*G:
=195	=195	=195	=195
1P	1V7b/ii	4GGG# 4GG#	4..E 4..B 4..d 4..e
.	.	4GG#	.
.	.	.	16e
.	.	4GGG# 4GG#	4..E 4..B 4..d 4..e
.	.	4GG#	.
.	.	.	16e
=196	=196	=196	=196
1P	1i/ii	2AAA 2AA	8EL 8A 8c [8e
.	.	.	(32eLL]
.	.	.	32f
.	.	.	32e
.	.	.	32d#JJJ
.	.	.	32eLLL
.	.	.	32fn
.	.	.	32f#
.	.	.	32gnJJ
.	.	.	32g#LL
.	.	.	32a
.	.	.	32b-
.	.	.	32bJJJ
.	.	2r	32ccnLLL
.	.	.	32cc#
.	.	.	32dd
.	.	.	32dd#JJ
.	.	.	32eeLL
.	.	.	32ff
.	.	.	32ff#
.	.	.	32ggJJJ
.	.	.	32gg#LLL
.	.	.	32aa
.	.	.	32bb-
.	.	.	32bbJJ
.	.	.	32cccLL
.	.	.	32ccc#
.	.	.	32ddd
.	.	.	32ddd#JJJ)
*	*	*clefG2	*
=197	=197	=197	=197
1P	1V7/ii	4e 4g# 4dd	8eee
.	.	.	4eee
.	.	4e 4g# 4dd	.
.	.	.	4eee
.	.	4e 4g# 4dd	.
.	.	.	4eee
.	.	4e 4g# 4dd	.
.	.	.	8eee
=198	=198	=198	=198
1P	1ii	4a 4cc	(8.eeeL
.	.	.	16cccJk
.	.	4r	32eeeLLL
.	.	.	32ccc
.	.	.	32eee
.	.	.	32cccJJ
.	.	.	32eeeLL
.	.	.	32ccc
.	.	.	32eee
.	.	.	32cccJJJ
.	.	2r	8aa)
.	.	.	8r
.	.	.	4r
*	*	*clefF4	*clefF4
=199	=199	=199	=199
1D	1V7b	4FFF# 4FF#	4..D 4..A 4..c 4..d
.	.	4FF#	.
.	.	.	16d
.	.	4FFF# 4FF#	4..D 4..A 4..c 4..d
.	.	4FF#	.
.	.	.	16d
=200	=200	=200	=200
1D	1I	2GGG 2GG	8DL 8G 8B [8d
.	.	.	(32dLL]
.	.	.	32e
.	.	.	32d
.	.	.	32c#JJJ
*	*	*	*clefG2
.	.	.	32dLLL
.	.	.	32e-
.	.	.	32e
.	.	.	32fJJ
.	.	.	32f#LL
.	.	.	32g
.	.	.	32g#
.	.	.	32aJJJ
.	.	2r	32b-LLL
.	.	.	32b
.	.	.	32cc
.	.	.	32cc#JJ
.	.	.	32ddLL
.	.	.	32ee-
.	.	.	32ee
.	.	.	32ffJJJ
.	.	.	32ff#LLL
.	.	.	32gg
.	.	.	32gg#
.	.	.	32aaJJ
.	.	.	32bb-LL
.	.	.	32bb
.	.	.	32ccc
.	.	.	32ccc#JJJ)
*	*	*clefG2	*
=201	=201	=201	=201
1D	1V7	4d 4f# 4cc	(8ddd'L
.	.	.	8ddd'
.	.	4d 4f# 4cc	8ddd'
.	.	.	8ddd'J
.	.	4d 4f# 4cc	8ddd'L
.	.	.	8ddd'
.	.	4d 4f# 4cc	8ddd'
.	.	.	8ddd'J)
=202	=202	=202	=202
1T	1I	4g 4b	(8.dddL
.	.	.	16ccc#Jk
.	.	4r	16cccLL
.	.	.	16bbJ
.	.	.	24bb-L
.	.	.	24aa
.	.	.	24aa-JJ
.	.	2r	8gg)
.	.	.	8r
.	.	.	4r
*-	*-	*-	*-
!!!COM: Mozart
!!!OTL: Zehn Variationen in G, uber die Ariette 'Unser dummer Pobel meint' aus dem Singspiel 'Die Pilgrime von Mekka'
!!!Variation: Variation 9 c2
**function	**harm	**kern	**kern
*	*	*clefF4	*clefG2
*	*	*k[f#]	*k[f#]
*M2/2	*M2/2	*M2/2	*M2/2
*G:	*G:	*G:	*G:
=203	=203	=203	=203
1T	1I	4GG 4BB 4D 4G	4B 4d [4g
.	.	4r	16gLL]
.	.	.	(q32a#
.	.	.	16b)
.	.	.	(q32cc#
.	.	.	16dd)
.	.	.	(q32ff#
.	.	.	16ggJJ)
.	.	.	(q32aa#
.	.	4r	8bb)
.	.	.	16.r
.	.	.	32g
.	.	4GG 4G	(8.gL
.	.	.	32f#LL
.	.	.	32gJJJ)
=204	=204	=204	=204
1T	1Vb	2FF# 2AA 2D 2F#	4f#
.	.	.	(q32g#
.	.	.	16aLL)
.	.	.	(q32cc#
.	.	.	16dd)
.	.	.	(q32ee#
.	.	.	16ff#)
.	.	.	(q32gg#
.	.	.	16aaJJ)
.	.	.	(q32ccc#
.	.	4r	8ddd)
.	.	.	16.r
.	.	.	32f#
.	.	4FF# 4F#	(8.f#L
.	.	.	32eLL
.	.	.	32f#JJJ)
=205	=205	=205	=205
2T	2vi	4EE 4E	8e
.	.	.	4eee
.	.	4r	.
.	.	.	32dddLLL
.	.	.	32ccc#
.	.	.	32bb
.	.	.	32aaJJJ
2P	2V7/V	2AAA 2AA	32ggLLL
.	.	.	32ff#
.	.	.	32ee
.	.	.	32ddJJ
.	.	.	32cc#LL
.	.	.	32b
.	.	.	32a
.	.	.	32g#JJJ
.	.	.	32gLLL
.	.	.	32f#
.	.	.	32e
.	.	.	32dJJ
*	*	*	*clefF4
.	.	.	32c#LL
.	.	.	32B
.	.	.	32A
.	.	.	32GJJJ
=206	=206	=206	=206
1D	1V	4r	(8AL
.	.	.	8GJ)
.	.	.	q32F#
.	.	.	q32G
.	.	4D	(4.F#
.	.	4DD	.
.	.	.	8G#L
.	.	4r	8A
.	.	.	8BJ)
=207	=207	=207	=207
*	*	*	*^
1D	1V7	2r	8r	1c
.	.	.	8E	.
.	.	.	8F#L	.
.	.	.	8GJ	.
.	.	8r	[2A	.
.	.	(8DD	.	.
.	.	8EEL	.	.
.	.	8FF#J)	.	.
*	*	*	*v	*v
=208	=208	=208	=208
2T	2I	(8GGL	8AL] 8B
.	.	8AA	8AJ 8B
.	.	8BB	8r
.	.	8FF#J	8G 8B
4T	4i	8GGL	8r
.	.	8DD	8B- 8g
4P	4Gr	8EE-	8r
.	.	8CC#J	8B- 8g
=209	=209	=209	=209
2D	2Cc	2DD)	8r
.	.	.	(8G 8B
.	.	.	8AL 8c
.	.	.	8A#J 8c#
2D	2V7	4r	8BL 8d
.	.	.	8AJ) 8c
.	.	4DD	8r
.	.	.	8C 8D 8F# 8A
=210	=210	=210	=210
1T	1I	[2GGG	(2C [2D 2F# 2A
.	.	8GGG]	8BB) 8D] 8G
.	.	8r	8r
.	.	4r	4r
*-	*-	*-	*-
!!!COM: Mozart
!!!OTL: Zehn Variationen in G, uber die Ariette 'Unser dummer Pobel meint' aus dem Singspiel 'Die Pilgrime von Mekka'
!!!Variation: Variation 10 a
**function	**harm	**kern	**kern
*	*	*clefF4	*clefG2
*	*	*k[f#]	*k[f#]
*M3/8	*M3/8	*M3/8	*M3/8
*G:	*G:	*G:	*G:
=211	=211	=211	=211
*	*	*^	*
4.T	4.I	4.G	8r	8gL
.	.	.	(8BL	8g
.	.	.	8dJ)	16bL
.	.	.	.	16gJJ
=212	=212	=212	=212	=212
4.T	4.Vb	4.F#	8r	8f#L
.	.	.	(8AL	8f#
.	.	.	8dJ)	16aL
.	.	.	.	16f#JJ
=213	=213	=213	=213	=213
4T	4vi	4.E	8r	8eL
.	.	.	(8GL	8e
8T	8viiob/V	.	8c#J)	16gL
.	.	.	.	16eJJ
*	*	*	*v	*v
=214	=214	=214	=214
4T	4V	8DL	4d
.	.	8F#	.
8T	8viio/ii	8G#J	[8dd
=215	=215	=215	=215
4T	4V/V	8AL	(8ddL]
.	.	8E	8cc#)
8T	8viio	8F#J	[8ccJ
=216	=216	=216	=216
4T	4I	4G	(8ccL]
.	.	.	8b)
*	*	*^	*^
8P	8viioD7/V	8C#	8B-	8e	16aL
.	.	.	.	.	16gJJ
=217	=217	=217	=217	=217	=217
4D	4Cc	4.D	4Bn	4d	(4g
8D	8V7	.	8cn	8f#	16bLL
.	.	.	.	.	16aJJ)
=218	=218	=218	=218	=218	=218
4.T	4.I	8GL	8B	4g	4g
.	.	8D	8r	.	.
*	*	*	*	*v	*v
*	*	*v	*v	*
.	.	8GGJ	8r
*-	*-	*-	*-
!!!COM: Mozart
!!!OTL: Zehn Variationen in G, uber die Ariette 'Unser dummer Pobel meint' aus dem Singspiel 'Die Pilgrime von Mekka'
!!!Variation: Variation 10 b
**function	**harm	**kern	**kern
*	*	*clefF4	*clefG2
*	*	*k[f#]	*k[f#]
*M3/8	*M3/8	*M3/8	*M3/8
*G:	*G:	*G:	*G:
=219	=219	=219	=219
4.P	4.V7b/ii	8G#L 8B 8d	8eL
.	.	8G# 8B 8d	8e
.	.	8G#J 8B 8d	8eJ
=220	=220	=220	=220
4.P	4.i/ii	8A 8c	16aLL
.	.	.	16b
.	.	8r	16cc
.	.	.	16ddJ
.	.	8r	8eeJ
*	*	*clefG2	*
=221	=221	=221	=221
4.P	4.V7b/ii	8g#L 8b 8dd	8eeL 8eee
.	.	8g# 8b 8dd	8ee 8eee
.	.	8g#J 8b 8dd	8eeJ 8eee
=222	=222	=222	=222
4.P	4.ii	8a 8cc	16eeeLL
.	.	.	16ddd
.	.	8r	16ccc
.	.	.	16bbJ
.	.	8r	8aaJ
*	*	*clefF4	*
=223	=223	=223	=223
4.D	4.V7b	8F#L 8A 8c	8dL
.	.	8F# 8A 8c	8d
.	.	8F#J 8A 8c	8dJ
=224	=224	=224	=224
4.D	4.I	8Gn 8B	16gnLL
.	.	.	16a
.	.	8r	16b
.	.	.	16ccJ
.	.	8r	8ddJ
*	*	*clefG2	*
=225	=225	=225	=225
4.D	4.V7b	8f#L 8a 8cc	8ddL 8ddd
.	.	8f# 8a 8cc	8dd 8ddd
.	.	8f#J 8a 8cc	8ddJ 8ddd
=226	=226	=226	=226
4.T	4.I	8g 8b	16dddLL
.	.	.	16ccc
.	.	8r	16bb
.	.	.	16aaJ
.	.	8r	8ggJ
*-	*-	*-	*-
!!!COM: Mozart
!!!OTL: Zehn Variationen in G, uber die Ariette 'Unser dummer Pobel meint' aus dem Singspiel 'Die Pilgrime von Mekka'
!!!Variation: Variation 10 c
**function	**harm	**kern	**kern
*	*	*clefF4	*clefG2
*	*	*k[f#]	*k[f#]
*M3/8	*M3/8	*M3/8	*M3/8
*G:	*G:	*G:	*G:
=227	=227	=227	=227
4.T	4.I	16GLL	8bL 8dd 8gg
.	.	16g	.
.	.	16f#	8gg
.	.	16g	.
.	.	16G	16bbL
.	.	16gJJ	16ggJJ
=228	=228	=228	=228
4.T	4.Vb	16F#LL	8ff#L
.	.	16f#	.
.	.	16e	8ff#
.	.	16f#	.
.	.	16F#	16aaL
.	.	16f#JJ	16ff#JJ
=229	=229	=229	=229
4.T	4.vi	16ELL	8eeL
.	.	16e	.
.	.	16d#	8ee
.	.	16e	.
.	.	16E	16ggL
.	.	16eJJ	16eeJJ
=230	=230	=230	=230
4T	4V	16DLL	4dd
.	.	16d	.
.	.	16F#	.
.	.	16f#	.
8T	8viio/ii	16G#	[8ddd
.	.	16g#JJ	.
=231	=231	=231	=231
4T	4V/V	16ALL	(8dddL]
.	.	16a	.
.	.	16E	8ccc#)
.	.	16e	.
8T	8viio	16F#	[8cccJ
.	.	16f#JJ	.
=232	=232	=232	=232
4T	4I	16GLL	(8cccL]
.	.	16g	.
.	.	16BB	8bb)
.	.	16B	.
8P	8V7b/V	16C#	16aaL
.	.	16c#JJ	16ggJJ
=233	=233	=233	=233
*	*	*	*^
4D	4Cc	8DL 8d	4b	(4gg
.	.	8D 8d	.	.
8D	8V7	8DJ 8d	8cc	16bbLL
.	.	.	.	16aaJJ)
=234	=234	=234	=234	=234
4.T	4.I	8GL	4b	4gg
.	.	8D	.	.
.	.	8GGJ	8r	8r
*	*	*	*v	*v
*-	*-	*-	*-
!!!COM: Mozart
!!!OTL: Zehn Variationen in G, uber die Ariette 'Unser dummer Pobel meint' aus dem Singspiel 'Die Pilgrime von Mekka'
!!!Variation: Variation 10 b2
**function	**harm	**kern	**kern
*	*	*clefF4	*clefG2
*	*	*k[f#]	*k[f#]
*M3/8	*M3/8	*M3/8	*M3/8
*G:	*G:	*G:	*G:
=235	=235	=235	=235
4.P	4.V7b/ii	8G#L 8B 8d	8eL
.	.	8G# 8B 8d	8e
.	.	8G#J 8B 8d	8eJ
=236	=236	=236	=236
4.P	4.i/ii	8A 8c	8a'L
.	.	8r	(32aLL
.	.	.	32b
.	.	.	32cc
.	.	.	32ddJJ
.	.	8r	8eeJ)
*	*	*clefG2	*
=237	=237	=237	=237
4.P	4.V7b/ii	8g#L 8b 8dd	8eeL 8eee
.	.	8g# 8b 8dd	8ee 8eee
.	.	8g#J 8b 8dd	8eeJ 8eee
=238	=238	=238	=238
4.P	4.ii	8a 8cc	8eee'L
.	.	8r	(32eeeLL
.	.	.	32ddd
.	.	.	32ccc
.	.	.	32bbJJ
.	.	8r	8aaJ)
*	*	*clefF4	*
=239	=239	=239	=239
4.D	4.V7b	8F#L 8A 8c	8dL
.	.	8F# 8A 8c	8d
.	.	8F#J 8A 8c	8dJ
=240	=240	=240	=240
4.D	4.I	8Gn 8B	8gn'L
.	.	8r	(32gLL
.	.	.	32a
.	.	.	32b
.	.	.	32ccJJ
.	.	8r	8ddJ)
*	*	*clefG2	*
=241	=241	=241	=241
4.D	4.V7b	8f#L 8a 8cc	8ddL 8ddd
.	.	8f# 8a 8cc	8dd 8ddd
.	.	8f#J 8a 8cc	8ddJ 8ddd
=242	=242	=242	=242
4.T	4.I	8g 8b	8ddd'L
.	.	8r	(32dddLL
.	.	.	32ccc
.	.	.	32bb
.	.	.	32aaJJ
.	.	8r	8ggJ)
*-	*-	*-	*-
!!!COM: Mozart
!!!OTL: Zehn Variationen in G, uber die Ariette 'Unser dummer Pobel meint' aus dem Singspiel 'Die Pilgrime von Mekka'
!!!Variation: Variation 10 c2
**function	**harm	**kern	**kern
*	*	*clefF4	*clefG2
*	*	*k[f#]	*k[f#]
*M3/8	*M3/8	*M3/8	*M3/8
*G:	*G:	*G:	*G:
=243	=243	=243	=243
4.T	4.I	16GGLL	8bL 8dd 8gg
.	.	16G	.
.	.	16F#	8gg
.	.	16G	.
.	.	16GG	16bbL
.	.	16GJJ	16ggJJ
=244	=244	=244	=244
4.T	4.Vb	16FF#LL	8ff#L
.	.	16F#	.
.	.	16E	8ff#
.	.	16F#	.
.	.	16FF#	16aaL
.	.	16F#JJ	16ff#JJ
=245	=245	=245	=245
4.T	4.vi	16EELL	8eeL
.	.	16E	.
.	.	16D#	8ee
.	.	16E	.
.	.	16EE	16ggL
.	.	16EJJ	16eeJJ
=246	=246	=246	=246
4.T	4.V7b/vi	4.DD# 4.D#	16bLL
.	.	.	16ff#
.	.	.	16bb
.	.	.	16ff#
.	.	.	16bb
.	.	.	16ff#JJ
=247	=247	=247	=247
4.T	4.vi	8EL	16bLL
.	.	.	16gg
.	.	8E	16bb
.	.	.	16gg
.	.	16GL	16bb
.	.	16EJJ	16ggJJ
=248	=248	=248	=248
4.T	4.viiob/IV	8DL	16bLL
.	.	.	16ff
.	.	8D	16bb
.	.	.	16ff
.	.	16FL	16bb
.	.	16DJJ	16ffJJ
=249	=249	=249	=249
4.P	4.IV	8CL	16ccLL
.	.	.	16ee
.	.	8C	16ccc
.	.	.	16ee
.	.	16EL	16ccc
.	.	16CJJ	16eeJJ
=250	=250	=250	=250
4.P	4.Lt/V	4.BBB- 4.BB-	16ddLL
.	.	.	16gg#
.	.	.	16ddd
.	.	.	16gg#
.	.	.	16ddd
.	.	.	16gg#JJ
=251	=251	=251	=251
4.P	4.V7/V	4.AAA 4.AA	16eeLL
.	.	.	16ggn
.	.	.	16ccc#
.	.	.	16gg
.	.	.	16ccc#
.	.	.	16ggJJ
=252	=252	=252	=252
4.P	4.viioD7/vi	4.DD# 4.D#	16ff#LL
.	.	.	16aa
.	.	.	16cccn
.	.	.	16aa
.	.	.	16ccc
.	.	.	16aaJJ
=253	=253	=253	=253
4.P	4.vi	4.EE 4.E	16bLL
.	.	.	16gg
.	.	.	16bb
.	.	.	16gg
.	.	.	16bb
.	.	.	16ggJJ
=254	=254	=254	=254
4.P	4.ic/vi	16BBLL	16ggLL
.	.	16B	16g
.	.	16A#	16f#
.	.	16B	16g
.	.	16BB	16gg
.	.	16BJJ	16gJJ
=255	=255	=255	=255
4.P	4.ii7b	16CLL	16ggLL
.	.	16c	16a
.	.	16B	16g#
.	.	16c	16a
.	.	16C	16gg
.	.	16cJJ	16aJJ
=256	=256	=256	=256
4.P	4.Ic	16DLL	16ggLL
.	.	16d	16b
.	.	16c#	16a#
.	.	16d	16b
.	.	16D	16gg
.	.	16dJJ	16bJJ
=257	=257	=257	=257
4.P	4.IVb	16ELL	16ggLL
.	.	16e	16cc
.	.	16d#	16b
.	.	16e	16cc
.	.	16E	16gg
.	.	16eJJ	16ccJJ
=258	=258	=258	=258
4.P	4.viioD7c/IV	16FLL	16bbLL
.	.	16f	16dd
.	.	16e	16cc#
.	.	16f	16dd
.	.	16F	16bb
.	.	16fJJ	16ddJJ
=259	=259	=259	=259
4.P	4.IVb	16ELL	16cccLL
.	.	16e	16gg
.	.	16d#	16ff#
.	.	16e	16gg
.	.	16E	16ccc
.	.	16eJJ	16ggJJ
=260	=260	=260	=260
4.P	4.Lt	16E-LL	16ccc#LL
.	.	16e-	16gg
.	.	16d	16ff#
.	.	16e-	16gg
.	.	16E-	16ccc#
.	.	16e-JJ	16ggJJ
=261	=261	=261	=261
4.D	4.Cc	4.D; 4.G; 4.B; 4.d;	4.dd; 4.gg; 4.bb; 4.ddd;
*-	*-	*-	*-
!!!COM: Mozart
!!!OTL: Zehn Variationen in G, uber die Ariette 'Unser dummer Pobel meint' aus dem Singspiel 'Die Pilgrime von Mekka'
!!!Variation: Variation 10 Cadenza
**function	**harm	**kern	**kern
*	*	*clefF4	*clefG2
*	*	*k[f#]	*k[f#]
*M4/4	*M4/4	*M4/4	*M4/4
*G:	*G:	*G:	*G:
=262	=262	=262	=262
1D	1Ic	1r	8r
.	.	.	(16aa#LL
.	.	.	16cccJJ
.	.	.	8bbL)
.	.	.	(16ff#L
.	.	.	16aaJJ
.	.	.	8ggL)
.	.	.	(16cc#L
.	.	.	16eeJJ
.	.	.	8ddL)
.	.	.	(16a#L
.	.	.	16ccJJ)
=263	=263	=263	=263
1D	1Ic	1r	16bLL
.	.	.	16dd
.	.	.	16f#
.	.	.	16aJJ
.	.	.	16gLL
.	.	.	16b
.	.	.	16c#
.	.	.	16eJJ
.	.	.	16dLL
.	.	.	16g
*	*	*	*clefF4
.	.	.	16A#
.	.	.	16cJJ
.	.	.	16BLL
.	.	.	16d
.	.	.	16F#
.	.	.	16AJJ
=264	=264	=264	=264
1D	1Ic	1r	24GLL
.	.	.	24B
.	.	.	24AJ
.	.	.	24GL
.	.	.	24F#
.	.	.	24EJJ
.	.	.	24DLL
.	.	.	24G
.	.	.	24F#J
.	.	.	24EL
.	.	.	24D
.	.	.	24CJJ
.	.	.	24BBLL
.	.	.	24E
.	.	.	24DJ
.	.	.	24CL
.	.	.	24BB
.	.	.	24AAJJ
.	.	.	24GGLL
.	.	.	24BB
.	.	.	24AAJ
.	.	.	24GGL
.	.	.	24FF#
.	.	.	24EEJJ
=265	=265	=265	=265
1D	1V7	1r	8.DD;L
.	.	.	16FF#Jk
.	.	.	16EELL
.	.	.	16GG
.	.	.	16FF#
.	.	.	16AAJJ
.	.	.	16GGLL
.	.	.	16BB
.	.	.	16AA
.	.	.	16CJJ
.	.	.	16BBLL
.	.	.	16D
.	.	.	16C
.	.	.	16EJJ
=266	=266	=266	=266
1D	1V7	1r	32DLLL
.	.	.	32F#
.	.	.	32E
.	.	.	32GJJ
.	.	.	32F#LL
.	.	.	32A
.	.	.	32G
.	.	.	32BJJJ
*	*	*	*clefG2
.	.	.	32ALLL
.	.	.	32c
.	.	.	32B
.	.	.	32dJJ
.	.	.	32cLL
.	.	.	32e
.	.	.	32d
.	.	.	32f#JJJ
.	.	.	32eLLL
.	.	.	32g
.	.	.	32f#
.	.	.	32aJJ
.	.	.	32gLL
.	.	.	32b
.	.	.	32a
.	.	.	32ccJJJ
.	.	.	32bLLL
.	.	.	32dd
.	.	.	32cc
.	.	.	32eeJJ
.	.	.	32ddLL
.	.	.	32ff#
.	.	.	32ee
.	.	.	32ggJJJ
=267	=267	=267	=267
1D	1V7	1r	32ff#LLL
.	.	.	32aa
.	.	.	32gg
.	.	.	32bbJJ
.	.	.	32aaLL
.	.	.	32ccc
.	.	.	32bb
.	.	.	32dddJJJ
.	.	.	[4ccc
.	.	.	16cccLL]
.	.	.	(16aa
.	.	.	16ff#
.	.	.	16ddJJ
.	.	.	16cc#LL
.	.	.	16cc
.	.	.	16a
.	.	.	16f#JJ)
=268	=268	=268	=268
*M3/8	*M3/8	*M3/8	*M3/8
*	*	*clefG2	*
4.D	4.V	4.r	16dLL
.	.	.	16a
.	.	.	16f#
.	.	.	16a
.	.	.	16f#
.	.	.	16aJJ
=269	=269	=269	=269
4.D	4.V7	8cccL	16dLL
.	.	.	16a
.	.	8ccc	16f#
.	.	.	16a
.	.	16cccL	16f#
.	.	16dddJJ	16aJJ
=270	=270	=270	=270
4.D	4.Cc	8bbL	16dLL
.	.	.	16b
.	.	8bb	16g
.	.	.	16b
.	.	16bbL	16g
.	.	16cccJJ	16bJJ
=271	=271	=271	=271
4.D	4.V7	8aaL	16dLL
.	.	.	16cc
.	.	8aa	16a
.	.	.	16cc
.	.	16aaL	16a
.	.	16bbJJ	16ccJJ
=272	=272	=272	=272
4.D	4.Cc	8gg	16dLL
.	.	.	16dd
.	.	8r	16b
.	.	.	16dd
.	.	8r	16b
.	.	.	16ddJJ
*	*	*clefF4	*
=273	=273	=273	=273
4.D	4.V7b	8F#L	16dLL
.	.	.	16cc
.	.	8F#	16a
.	.	.	16cc
.	.	16F#L	16a
.	.	16DJJ	16ccJJ
=274	=274	=274	=274
4.D	4.I	8GL	16dLL
.	.	.	16b
.	.	8G	16g
.	.	.	16b
.	.	16GL	16g
.	.	16DJJ	16bJJ
=275	=275	=275	=275
4.D	4.Vc	8AL	16dLL
.	.	.	16a
.	.	8A	16f#
.	.	.	16a
.	.	16AL	16f#
.	.	16DJJ	16aJJ
=276	=276	=276	=276
4.D	4.Ib	8B	16dLL
.	.	.	16g
.	.	8r	16f#
.	.	.	16g
.	.	8r	16f#
.	.	.	16gJJ
*	*	*clefG2	*
=277	=277	=277	=277
4.D	4.V7	8cccL	16dLL
.	.	.	16a
.	.	8ccc	16f#
.	.	.	16a
.	.	16cccL	16f#
.	.	16dddJJ	16aJJ
=278	=278	=278	=278
4.D	4.Cc	8bb-L	16dLL
.	.	.	16b-
.	.	8bb-	16g
.	.	.	16b-
.	.	16bb-L	16g
.	.	16cccJJ	16b-JJ
=279	=279	=279	=279
4.D	4.V7	8aaL	16dLL
.	.	.	16cc
.	.	8aa	16a
.	.	.	16cc
.	.	16aaL	16a
.	.	16bb-JJ	16ccJJ
=280	=280	=280	=280
4.D	4.Cc	8gg	16dLL
.	.	.	16dd
.	.	8r	16b-
.	.	.	16dd
.	.	8r	16b-
.	.	.	16ddJJ
*	*	*clefF4	*
=281	=281	=281	=281
4.D	4.V7b	8F#L	16dLL
.	.	.	16cc
.	.	8F#	16a
.	.	.	16cc
.	.	16F#L	16a
.	.	16DJJ	16ccJJ
=282	=282	=282	=282
4.D	4.i	8GL	16dLL
.	.	.	16b-
.	.	8G	16g
.	.	.	16b-
.	.	16GL	16g
.	.	16DJJ	16b-JJ
=283	=283	=283	=283
4.D	4.Vc	8AL	16dLL
.	.	.	16a
.	.	8A	16f#
.	.	.	16a
.	.	16AL	16f#
.	.	16DJJ	16aJJ
=284	=284	=284	=284
4.D	4.ib	8B	16dLL
.	.	.	16g
.	.	8r	16f#
.	.	.	16g
.	.	8r	16f#
.	.	.	16gJJ
*	*	*clefG2	*
=285	=285	=285	=285
4.D	4.V	8dddL	16dLL
.	.	.	16a
.	.	8ddd	16f#
.	.	.	16a
.	.	16dddL	16f#
.	.	16aaJJ	16aJJ
=286	=286	=286	=286
4.D	4.Cc	8bb-	16dLL
.	.	.	16b-
.	.	8r	16g
.	.	.	16b-
.	.	8r	16g
.	.	.	16b-JJ
*	*	*clefF4	*
=287	=287	=287	=287
4.D	4.V7b	8F#L	16dLL
.	.	.	16cc
.	.	8F#	16a
.	.	.	16cc
.	.	16F#L	16a
.	.	16DJJ	16ccJJ
=288	=288	=288	=288
4.D	4.i	8G	16dLL
.	.	.	16b-
.	.	8r	16g
.	.	.	16b-
.	.	8r	16g
.	.	.	16b-JJ
*	*	*clefG2	*
=289	=289	=289	=289
4.D	4.V/-VI	8bb-L	16B-LL
.	.	.	16f
.	.	8bb-	16d
.	.	.	16f
.	.	16bb-L	16d
.	.	16ffJJ	16fJJ
=290	=290	=290	=290
4.D	4.Ic/-VI	8gg	16B-LL
.	.	.	16g
.	.	8r	16e-
.	.	.	16g
.	.	8r	16e-
.	.	.	16gJJ
*	*	*clefF4	*
=291	=291	=291	=291
4.D	4.V7b/-VI	8DL	16B-LL
.	.	.	16a-
.	.	8D	16f
.	.	.	16a-
.	.	16DL	16f
.	.	16BB-JJ	16a-JJ
=292	=292	=292	=292
4.D	4.I/-VI	8E-	16B-LL
.	.	.	16g
.	.	8r	16e-
.	.	.	16g
.	.	8r	16e-
.	.	.	16gJJ
*	*	*clefG2	*
=293	=293	=293	=293
4.D	4.V/iv	8ggnL	16GLL
.	.	.	16d
.	.	8gg	16B
.	.	.	16d
.	.	16ggL	16B
.	.	16ddnJJ	16dJJ
=294	=294	=294	=294
4.D	4.ic/iv	8ee-	16GLL
.	.	.	16e-
.	.	8r	16c
.	.	.	16e-
.	.	8r	16c
.	.	.	16e-JJ
*	*	*clefF4	*
=295	=295	=295	=295
4.D	4.V7b/iv	8BBnL	16GLL
.	.	.	16f
.	.	8BB	16d
.	.	.	16f
.	.	16BBL	16d
.	.	16GGJJ	16fJJ
=296	=296	=296	=296
4.D	4.iv	4.C	16GLL
.	.	.	16e-
.	.	.	16c
.	.	.	16e-
.	.	.	16c
.	.	.	16e-JJ
=297	=297	=297	=297
4.D	4.ivb	4.E-	16GLL
.	.	.	16e-
.	.	.	16c
.	.	.	16e-
.	.	.	16c
.	.	.	16e-JJ
=298	=298	=298	=298
4.D	4.Nb	4.C	16A-LL
.	.	.	16e-
.	.	.	16c
.	.	.	16e-
.	.	.	16c
.	.	.	16e-JJ
=299	=299	=299	=299
4.D	4.N	4.AA-	16A-LL
.	.	.	16e-
.	.	.	16c
.	.	.	16e-
.	.	.	16c
.	.	.	16e-JJ
=300	=300	=300	=300
4.D	4.viioD7	4.FF#	16AnLL
.	.	.	16e-
.	.	.	16c
.	.	.	16e-
.	.	.	16c
.	.	.	16e-JJ
=301	=301	=301	=301
4.D	4.viioD7d	4.EE-	16AnLL
.	.	.	16e-
.	.	.	16c
.	.	.	16e-
.	.	.	16c
.	.	.	16e-JJ
=302	=302	=302	=302
4.D	4.viioD7c	4.CC	16cnLL
.	.	.	16f#
.	.	.	16e-
.	.	.	16f#
.	.	.	16e-
.	.	.	16f#JJ
=303	=303	=303	=303
4.D	4.viiob	4.AAAn	16cnLL
.	.	.	16f#
.	.	.	16e-
.	.	.	16f#
.	.	.	16e-
.	.	.	16f#JJ
=304	=304	=304	=304
4.D	4.viio	[4FFF#;	4c; 4a;
.	.	16FFF#LL]	8r
.	.	16AAAJJ	.
=305	=305	=305	=305
4.D	4.V	16DDLL	4.r
.	.	16FF#	.
.	.	16AA	.
.	.	16D	.
.	.	16F#	.
.	.	16AJJ	.
=306	=306	=306	=306
4.D	4.V	4.r	16dLL
.	.	.	16f#
.	.	.	16a
.	.	.	16dd
.	.	.	16ff#
.	.	.	16aaJJ
=307	=307	=307	=307
4.D	4.V7	4.r	8ccc
.	.	.	8r
.	.	.	8r
*	*	*clefG2	*
=308	=308	=308	=308
4.D	4.V7	8d'L 8a'	8cc'L 8ff#'
.	.	8d' 8a'	8cc' 8ff#'
.	.	(8dJ 8a	(8ccJ 8ff#
=309	=309	=309	=309
4.D	4.vi	8e) 8g	8b) 8gg
.	.	8r	8r
.	.	8r	8r
=310	=310	=310	=310
4.D	4.V7/vi	8B'L 8f#'	8a'L 8dd#'
.	.	8B' 8f#'	8a' 8dd#'
.	.	(8BJ 8f#	(8aJ 8dd#
=311	=311	=311	=311
4D	4IV	8c) 8e	8g) 8ee
.	.	8r	8r
*	*	*clefF4	*
8D	8viioD7/ii	(8G# 8d	(8f 8b
=312	=312	=312	=312
4D	4ii	8A) 8c	8e) 8cc
.	.	8r	8r
8D	8CtoD7	(8A# 8e	(8gn 8cc#
=313	=313	=313	=313
4D	4Ib	8B) 8d	8f#) 8dd
.	.	8r	8r
8+D	8Ib+	(8BB 8B	(8gn 8dd#
=314	=314	=314	=314
4D	4IV	8C) 8c	8g) 8ee
.	.	8r	8r
8D	8V7b/V	(8CC# 8C#	8en 8g 8a
=315	=315	=315	=315
4.D	4.Cc	4.DD) 4.D	4.d 4.g [4.b
=316	=316	=316	=316
4.D	4.Cc	4.r	(32bLLL]
.	.	.	32dd
.	.	.	32cc
.	.	.	32bJJ
.	.	.	32ccLL
.	.	.	32dd
.	.	.	32ee
.	.	.	32ff#JJ
.	.	.	32ggLL
.	.	.	32aa
.	.	.	32bb
.	.	.	32cccJJJ
=317	=317	=317	=317
4.D	4.Cc	4.r	8ddd)
.	.	.	8r
.	.	.	16.r
.	.	.	32g
=318	=318	=318	=318
4.D	4.V7	4.r	[4cc
.	.	.	16.ccLK]
.	.	.	96bLLL
.	.	.	96a
.	.	.	96gJJJJ
=319	=319	=319	=319
4.D	4.V7	4.r	[4.a
=320	=320	=320	=320
4.D	4.V7	4.r	4.a_
=321	=321	=321	=321
4.D	4.V7	[4.D [4.F# [4.c	4a]
.	.	.	8g
=322	=322	=322	=322
4.D	4.V7	4.D] 4.F#] 4.c]	(8bL
.	.	.	8.a)
.	.	.	16g'Jk
*-	*-	*-	*-
!!!COM: Mozart
!!!OTL: Zehn Variationen in G, uber die Ariette 'Unser dummer Pobel meint' aus dem Singspiel 'Die Pilgrime von Mekka'
!!!Variation: Variation 10 coda a
**function	**harm	**kern	**kern
*	*	*clefF4	*clefG2
*	*	*k[f#]	*k[f#]
*M4/4	*M4/4	*M4/4	*M4/4
*G:	*G:	*G:	*G:
=323	=323	=323	=323
2T	2I	4GG 4G	4g
.	.	4G	4g
2T	2Vb	4FF# 4F#	4f#
.	.	4F#	8f#L
.	.	.	8gJ
=324	=324	=324	=324
2T	2vi	4EE 4E	4e
.	.	4E	8eL
.	.	.	8gJ
2T	2V	4DD 4D	4.d
.	.	4r	.
.	.	.	8d
=325	=325	=325	=325
*	*	*	*^
4T	4IVb	4E	4g	4cc
4T	4viio	4F#	4a	4cc
4T	4I	4G	4d	(8ccL
.	.	.	.	8b
4T	4V7b/V	4C# 4A	4e	8a
.	.	.	.	8gJ)
=326	=326	=326	=326	=326
4T	4Ic	(4D 4B	4d	(4g
4T	4viioD7/vi	4D#) 4c	4f#	8bL
.	.	.	.	8aJ
2T	2vi	4E 4B	4g	4g)
.	.	4r	8r	4r
.	.	.	8gg	.
*	*	*clefG2	*	*
=327	=327	=327	=327	=327
4P	4IVb	4e	4gg	4ccc
4P	4viio	4f#	4aa	4ccc
2P	2I	4g	4dd	(8cccL
.	.	.	.	8bb)
.	.	4r	4r	8aa'
.	.	.	.	8gg'J
*	*	*	*v	*v
=328	=328	=328	=328
*	*	*^	*
4D	4Cc	2d	(4b	(4ddd
4D	4V7	.	4a)	4cc) 4ff#
*	*	*v	*v	*
2T	2I	(8GL	4b 4gg
.	.	8g	.
.	.	8G	4r
.	.	8gJ)	.
*-	*-	*-	*-
!!!COM: Mozart
!!!OTL: Zehn Variationen in G, uber die Ariette 'Unser dummer Pobel meint' aus dem Singspiel 'Die Pilgrime von Mekka'
!!!Variation: Variation 10 coda d
**function	**harm	**kern	**kern
*	*	*clefF4	*clefG2
*	*	*k[f#]	*k[f#]
*M4/4	*M4/4	*M4/4	*M4/4
*G:	*G:	*G:	*G:
=329	=329	=329	=329
2T	2IVc	(8GL	4ee 4ccc
.	.	8g	.
.	.	8G	(4ee 4ccc
.	.	8gJ	.
2T	2I	8GL	4dd) 4bb
.	.	8g	.
.	.	8G	(4dd 4bb
.	.	8gJ)	.
=330	=330	=330	=330
2T	2viio	(8GL	4cc) 4aa
.	.	8g	.
.	.	8G	4cc 4aa
.	.	8gJ	.
2T	2I	8GL	16bLL
.	.	.	16dd
.	.	8g	16gg
.	.	.	16bbJJ
.	.	8G	8ddd
.	.	8gJ)	8r
=331	=331	=331	=331
2T	2IVc	(8GL	4ee 4ccc
.	.	8g	.
.	.	8G	(4ee 4ccc
.	.	8gJ	.
2T	2I	8GL	4dd) 4bb
.	.	8g	.
.	.	8G	4dd 4bb
.	.	8gJ)	.
=332	=332	=332	=332
*	*	*	*^
.	.	.	.	(q32bb
2T	2viio	(8GL	2cc	(8aaL)
.	.	8g	.	8gg
.	.	8G	.	8aa
.	.	8gJ)	.	8bbJ)
*	*	*clefF4	*	*
2T	2I	16GGLL	4b	4gg
.	.	16G	.	.
.	.	16F#	.	.
.	.	16GJJ	.	.
*	*	*	*v	*v
.	.	16GGLL	4r
.	.	16G	.
.	.	16F#	.
.	.	16GJJ	.
=333	=333	=333	=333
2T	2IVc	16GGLL	4e 4cc
.	.	16G	.
.	.	16F#	.
.	.	16GJJ	.
.	.	16GGLL	(4e 4cc
.	.	16G	.
.	.	16F#	.
.	.	16GJJ	.
2T	2I	16GGLL	4d) 4b
.	.	16G	.
.	.	16F#	.
.	.	16GJJ	.
.	.	16GGLL	(4d 4b
.	.	16G	.
.	.	16F#	.
.	.	16GJJ	.
=334	=334	=334	=334
2T	2viio	16GGLL	4c) 4a
.	.	16G	.
.	.	16F#	.
.	.	16GJJ	.
.	.	16GGLL	4c 4a
.	.	16G	.
.	.	16F#	.
.	.	16GJJ	.
2T	2I	16GGLL	16BLL
.	.	16G	16d
.	.	16F#	16g
.	.	16GJJ	16bJJ
.	.	16GGLL	8dd
.	.	16G	.
.	.	16F#	8r
.	.	16GJJ	.
=335	=335	=335	=335
2T	2IVc	16GGLL	4e 4cc
.	.	16G	.
.	.	16F#	.
.	.	16GJJ	.
.	.	16GGLL	(4e 4cc
.	.	16G	.
.	.	16F#	.
.	.	16GJJ	.
2T	2I	16GGLL	4d) 4b
.	.	16G	.
.	.	16F#	.
.	.	16GJJ	.
.	.	16GGLL	4d 4b
.	.	16G	.
.	.	16F#	.
.	.	16GJJ	.
=336	=336	=336	=336
*	*	*	*^
.	.	.	.	(q32b
2T	2viio	16GGLL	2c	(8aL)
.	.	16G	.	.
.	.	16F#	.	8g
.	.	16GJJ	.	.
.	.	16GGLL	.	8a
.	.	16G	.	.
.	.	16F#	.	8bJ)
.	.	16GJJ	.	.
2T	2I	4GG	8B	8gL
.	.	.	8r	8gJ
.	.	4r	4r	16gLL
.	.	.	.	16a
.	.	.	.	16b
.	.	.	.	16ccJJ
*	*	*	*v	*v
*	*	*clefG2	*
=337	=337	=337	=337
2T	2V7	4d 4a 4cc	8ddL
.	.	.	8ddJ
.	.	4r	8ddL
.	.	.	16eeL
.	.	.	16ff#JJ
2T	2I	4g 4b	8ggL
.	.	.	8ggJ
.	.	4r	16aaLL
.	.	.	16gg
.	.	.	16ff#
.	.	.	16eeJJ
=338	=338	=338	=338
2T	2V7	4d 4a 4cc	16ddLL
.	.	.	16ee
.	.	.	16cc
.	.	.	16ddJJ
.	.	4r	16bLL
.	.	.	16cc
.	.	.	16a
.	.	.	16bJJ
*	*	*clefF4	*
2T	2I	4G 4B	8gL
.	.	.	8gJ
.	.	4r	8gL)
.	.	.	16f#L
.	.	.	16eJJ
=339	=339	=339	=339
2T	2V7	4D 4A 4c	16dLL
.	.	.	16e
.	.	.	16c
.	.	.	16dJJ
*	*	*	*clefF4
.	.	4r	16BLL
.	.	.	16c
.	.	.	16A
.	.	.	16BJJ
2T	2I	4GG 4BB	8GL
.	.	.	8GJ
.	.	4r	8GL)
.	.	.	16F#L
.	.	.	16EJJ
=340	=340	=340	=340
2T	2V7	4DD 4AA 4C	16DLL
.	.	.	16E
.	.	.	16C
.	.	.	16DJJ
.	.	4r	16BBLL
.	.	.	16C
.	.	.	16AA
.	.	.	16BBJJ
*	*	*clefG2	*
2T	2I	4B 4g	8GGL
.	.	.	8GGJ
.	.	4r	8GGL)
.	.	.	16FF#L
.	.	.	16EEJJ
=341	=341	=341	=341
2T	2V	4d 4a	16DDLL
.	.	.	16EE
.	.	.	16CC
.	.	.	16DDJJ
.	.	4r	16BBBLL
.	.	.	16CC
.	.	.	16AAA
.	.	.	16BBBJJ
2T	2I	4g 4b	8GGGL
.	.	.	16AAAL
.	.	.	16BBBJJ
.	.	4r	16CCLL
.	.	.	16DD
.	.	.	16EE
.	.	.	16FF#JJ
*	*	*clefF4	*
=342	=342	=342	=342
1T	1I	8GGGL	8GGL
.	.	16AAAL	16AAL
.	.	16BBBJJ	16BBJJ
.	.	16CCLL	16CLL
.	.	16DD	16D
.	.	16EE	16E
.	.	16FF#JJ	16F#JJ
.	.	8GGL	8GL
.	.	16AAL	16AL
.	.	16BBJJ	16BJJ
*	*	*	*clefG2
.	.	16CLL	16cLL
.	.	16D	16d
.	.	16E	16e
.	.	16F#JJ	16f#JJ
=343	=343	=343	=343
1T	1I	4G	4g
.	.	4GGG 4GG	4b 4dd 4gg
.	.	2r;	2r;
==	==	==	==
*-	*-	*-	*-
